!!!!SEGMENT: pl-cz--iii-553--001-005_raszek-waclaw--missa-in-f-et-resurrexit.krn
!!!cenid: 18xx:998
!!!COM: Raszek, Wacław
!!!COM-rismid: pe30020314
!!!CDT: <1848->1848
!!!CNT:
!!!OPR: Missa in F
!!!OTL: Et resurrexit
!!!OMV: 005
!!!PDT: 1829
!!!AGN: Sacred; Mass
!!!SMS-siglum: PL-CZ
!!!SMS-shelfmark: III-553
!!!SMS-shelfwork: 001-005 M
!!!SMS-variant:
!!!SMS-altvar:
!!!NIFC-rismid: 300001048
!!!URL-scan: http://repozytorium.nifc.pl/skany/pl-cz-nut--iii-553
!!!ONB-nifc: UWAGA: części Mszy: Kyrie, Gloria, Credo, Et incarnatus, Et resurrexit, Sanctus, Pleni sunt, Benedictus, Agnus Dei, Dona nobis
!!!AIN: 1 alto 1 bass 2 clars 2 cor 1 organ 1 soprn 1 tenor 1 viola 2 violn
!!!key: F
**kern	**dynam	**kern	**dynam	**kern	**dynam	**kern	**dynam	**kern	**text	**dynam	**kern	**text	**dynam	**kern	**text	**dynam	**kern	**text	**dynam	**kern	**dynam	**kern	**dynam	**kern	**dynam	**kern	**dynam
*	*	*group4	*	*group4	*	*group4	*	*group3	*	*	*group3	*	*	*group3	*	*	*group3	*	*	*group2	*	*group2	*	*group1	*	*group1	*
*part12	*part12	*part11	*part11	*part10	*part10	*part9	*part9	*part8	*part8	*part8	*part7	*part7	*part7	*part6	*part6	*part6	*part5	*part5	*part5	*part4	*part4	*part3	*part3	*part2	*part2	*part1	*part1
*staff12	*	*staff11	*	*staff10	*	*staff9	*	*staff8	*staff8	*	*staff7	*staff7	*	*staff6	*staff6	*	*staff5	*staff5	*	*staff4	*	*staff3	*	*staff2	*	*staff1	*
*I"Organo.	*	*I"Alto Viola	*	*I"Violino Secondo.	*	*I"Violino Primo.	*	*I"Basso.	*	*	*I"Tenore.	*	*	*I"Alto.	*	*	*I"Canto.	*	*	*I"Corno Secondo in F.	*	*I"Corno Primo in F.	*	*I"Clarinetto Secondo in B.	*	*I"Clarinetto. Primo. in B.	*
*I'org	*	*I'a-vla	*	*I'vl 2	*	*I'vl 1	*	*I'B	*	*	*I'T	*	*	*I'A	*	*	*I'S	*	*	*I'cor 2 in F	*	*I'cor 1 in F	*	*I'cl 2 in B	*	*I'cl 1 in B	*
*Iorgan	*	*Iviola	*	*Ivioln	*	*Ivioln	*	*Ibass	*	*	*Itenor	*	*	*Ialto	*	*	*Isoprn	*	*	*Icor	*	*Icor	*	*Iclars	*	*Iclars	*
*ICklav	*	*ICstr	*	*ICstr	*	*ICstr	*	*ICvox	*	*	*ICvox	*	*	*ICvox	*	*	*ICvox	*	*	*ICbras	*	*ICbras	*	*ICww	*	*ICww	*
*IGcont	*	*	*	*	*	*	*	*IGcoro	*	*	*IGcoro	*	*	*IGcoro	*	*	*IGcoro	*	*	*	*	*	*	*	*	*	*
*clefF4	*	*clefC3	*	*clefG2	*	*clefG2	*	*clefF4	*	*	*clefC4	*	*	*clefC3	*	*	*clefC1	*	*	*clefG2	*	*clefG2	*	*clefG2	*	*clefG2	*
*	*	*	*	*	*	*	*	*	*	*	*	*	*	*	*	*	*	*	*	*ITrd4c7	*	*ITrd4c7	*	*ITrd1c2	*	*ITrd1c2	*
*k[b-]	*	*k[b-]	*	*k[b-]	*	*k[b-]	*	*k[b-]	*	*	*k[b-]	*	*	*k[b-]	*	*	*k[b-]	*	*	*k[b-]	*	*k[b-]	*	*k[b-]	*	*k[b-]	*
*F:	*	*F:	*	*F:	*	*F:	*	*F:	*	*	*F:	*	*	*F:	*	*	*F:	*	*	*	*	*	*	*F:	*	*F:	*
*M3/4	*	*M3/4	*	*M3/4	*	*M3/4	*	*M3/4	*	*	*M3/4	*	*	*M3/4	*	*	*M3/4	*	*	*M3/4	*	*M3/4	*	*M3/4	*	*M3/4	*
=1	=1	=1	=1	=1	=1	=1	=1	=1	=1	=1	=1	=1	=1	=1	=1	=1	=1	=1	=1	=1	=1	=1	=1	=1	=1	=1	=1
!	!	!	!	!	!	!LO:TX:a:i:rj:t=Tutti	!	!LO:TX:a:i:t=Tu&colon;	!	!	!LO:TX:a:i:rj:t=Tutti	!	!	!LO:TX:a:i:rj:t=Tutti	!	!	!	!	!	!	!	!	!	!	!	!	!
!LO:TX:a:i:rj:t=Allo Moderato.	!	!LO:TX:a:i:t=allo molto.	!	!LO:TX:a:i:t=allo molto.	!	!LO:TX:a:i:rj:t=allo molto	!LO:DY:a	!LO:TX:a:i:t=allo molto	!	!	!LO:TX:a:i:rj:t=allo molto.	!	!	!LO:TX:a:i:rj:t=Allo molto.	!	!LO:DY:a:rj	!LO:TX:a:i:rj:t=Allo molto.	!	!LO:DY:a:rj	!	!	!LO:TX:a:i:t=Allo Moderato.	!	!LO:TX:a:i:rj:t=Allo molto.	!	!LO:TX:a:i:rj:t=allo molto.	!
4FF/	.	4c 4F\	.	4a 4f\	.	4ff 4a\	f	4F\	Et	.	4c\	Et	.	4a\	Et	f	4ff\	Et	f	4A/	.	4f\	.	4a\	f	4ff\	f
*	*	*	*below	*	*below	*	*	*	*	*	*	*	*	*	*	*	*	*	*	*	*	*	*	*	*	*	*
!	!	!	!LO:DY:rj	!	!LO:DY:rj	!	!	!	!	!	!	!	!	!	!	!	!	!	!	!	!	!	!	!	!	!	!
4AA/	f	4c 4F\	f	4a 4f\	f	4ff 4a\	.	4F\	re-	.	4c\	re-	.	4a\	re-	.	4ff\	re-	.	4A/	.	4f\	.	4a\	.	4ff\	.
!	!	!	!	!	!	!	!	!	!	!LO:DY:a:rj	!	!	!	!	!	!	!	!	!	!	!	!	!	!	!	!	!
4C/	.	4c 4F\	.	4a 4f\	.	4ff 4a\	.	4F\	-ſur-	f	4c\	-ſur-	.	4a\	-sur-	.	4ff\	-sur-	.	4A/	.	4f\	.	4a\	.	4ff\	.
=2	=2	=2	=2	=2	=2	=2	=2	=2	=2	=2	=2	=2	=2	=2	=2	=2	=2	=2	=2	=2	=2	=2	=2	=2	=2	=2	=2
4F\	.	4c 4F\	.	4a 4f\	.	8ffL 8a\	.	4F\	-re-	.	4c\	-re-	.	4a\	-re-	.	4ff\	-re-	.	4A/	.	4f\	.	4a\	.	4ff\	.
.	.	.	.	.	.	8cc\	.	.	.	.	.	.	.	.	.	.	.	.	.	.	.	.	.	.	.	.	.
4FF/	.	4c 4F\	.	4a 4f\	.	8dd\	.	4F\	-xit	.	4c\	-xit	.	4a\	-xit	.	4ff\	-xit	.	4A/	.	4r	.	4r	.	4ff\	.
.	.	.	.	.	.	8ee\	.	.	.	.	.	.	.	.	.	.	.	.	.	.	.	.	.	.	.	.	.
4r	.	4r	.	4r	.	8ff\	.	4r	.	.	4r	.	.	4r	.	.	4r	.	.	4r	.	4r	.	4r	.	4r	.
.	.	.	.	.	.	8gg\J	.	.	.	.	.	.	.	.	.	.	.	.	.	.	.	.	.	.	.	.	.
=3	=3	=3	=3	=3	=3	=3	=3	=3	=3	=3	=3	=3	=3	=3	=3	=3	=3	=3	=3	=3	=3	=3	=3	=3	=3	=3	=3
4D\	.	4d 4A 4D/	.	4a 4f\	.	4aa 4a\	.	4D\	ter-	.	4d\	ter-	.	4a\	ter-	.	4ff\	ter-	.	4f\	.	4a\	.	4ff\	.	4aa\	.
4F\	.	4d 4A 4D/	.	4a 4f\	.	4aa 4a\	.	4D\	-ti-	.	4d\	-ti-	.	4a\	-ti-	.	4ff\	-ti-	.	4f\	.	4a\	.	4ff\	.	4aa\	.
4A\	.	4d 4A 4D/	.	4a 4f\	.	4aa 4a\	.	4D\	-a	.	4d\	-a	.	4a\	-a	.	4ff\	-a	.	4f\	.	4a\	.	4ff\	.	4aa\	.
=4	=4	=4	=4	=4	=4	=4	=4	=4	=4	=4	=4	=4	=4	=4	=4	=4	=4	=4	=4	=4	=4	=4	=4	=4	=4	=4	=4
4d\	.	4d 4A 4D/	.	4a 4f\	.	8aaL 8a\	.	4D\	di-	.	4d\	di-	.	4a\	di-	.	4ff\	di-	.	4f\	.	4a\	.	4ff\	.	4aa\	.
.	.	.	.	.	.	8cc#X\	.	.	.	.	.	.	.	.	.	.	.	.	.	.	.	.	.	.	.	.	.
4D\	.	4d 4A 4D/	.	4r	.	8dd\	.	4D\	-e	.	4d\	-e	.	4a\	-e	.	4ff\	-e	.	4f\	.	4a\	.	4r	.	4aa\	.
.	.	.	.	.	.	8ee\	.	.	.	.	.	.	.	.	.	.	.	.	.	.	.	.	.	.	.	.	.
4r	.	4r	.	4r	.	8ff\	.	4r	.	.	4r	.	.	4r	.	.	4r	.	.	4r	.	4r	.	4r	.	4r	.
.	.	.	.	.	.	8gg\J	.	.	.	.	.	.	.	.	.	.	.	.	.	.	.	.	.	.	.	.	.
!	!	!	!	!	!	!LO:LB:g=original	!	!LO:LB:g=original	!	!	!	!	!	!LO:LB:g=original	!	!	!LO:LB:g=original	!	!	!	!	!	!	!	!	!	!
=5	=5	=5	=5	=5	=5	=5	=5	=5	=5	=5	=5	=5	=5	=5	=5	=5	=5	=5	=5	=5	=5	=5	=5	=5	=5	=5	=5
4E-X\	.	4e-X 4c\	.	4cc 4f\	.	4aa 4a\	.	4E-X\	se-	.	4c\	se-	.	8a\	Se-	.	4ff\	se-	.	4c/	.	4f\	.	4ff\	.	4aa\	.
.	.	.	.	.	.	.	.	.	.	.	.	.	.	8a\	-cun-	.	.	.	.	.	.	.	.	.	.	.	.
4E-\	.	4e- 4c\	.	4cc 4f\	.	4aa 4a\	.	4E-\	-cun-	.	4c\	-cun-	.	4a\	-dum	.	4ff\	-cun-	.	4c/	.	4f\	.	4ff\	.	4aa\	.
4E-\	.	4e- 4c\	.	4cc 4f\	.	4aa 4a\	.	8E-\	-dum	.	8c\	-dum	.	4a\	scrip-	.	8ff\	-dum	.	4c/	.	4f\	.	4ff\	.	4aa\	.
.	.	.	.	.	.	.	.	8E-\	scrip-	.	8c\	scri-	.	.	.	.	8ff\	scrip-	.	.	.	.	.	.	.	.	.
!LO:LB:g=original	!	!LO:LB:g=original	!	!	!	!	!	!	!	!	!LO:LB:g=original	!	!	!	!	!	!	!	!	!	!	!	!	!	!	!	!
=6	=6	=6	=6	=6	=6	=6	=6	=6	=6	=6	=6	=6	=6	=6	=6	=6	=6	=6	=6	=6	=6	=6	=6	=6	=6	=6	=6
!	!	!	!	!	!	!	!	!LO:SIC:v:s=4E-\	!	!	!	!	!	!	!	!	!	!	!	!	!	!	!	!	!	!	!
4E-X\	.	4e-X 4c\	.	4cc 4f\	.	8aaL 8a\	.	4E\	-tu-	.	4c\	-ptu-	.	4a\	-tu-	.	4ff\	-tu-	.	4c/	.	4f\	.	4ff\	.	4aa\	.
.	.	.	.	.	.	8ff\	.	.	.	.	.	.	.	.	.	.	.	.	.	.	.	.	.	.	.	.	.
!	!	!	!	!	!	!	!	!LO:SIC:v:s=4E-\	!	!	!	!	!	!	!	!	!	!	!	!	!	!	!	!	!	!	!
4E-\	.	4e- 4c\	.	4cc 4f\	.	8ee\	.	4E\	-ras	.	4c\	-ras	.	4a\	-ras	.	4ff\	-ras	.	4c/	.	4f\	.	4ff\	.	4aa\	.
.	.	.	.	.	.	8ff\	.	.	.	.	.	.	.	.	.	.	.	.	.	.	.	.	.	.	.	.	.
4r	.	4r	.	4r	.	8gg\	.	4r	.	.	4r	.	.	4r	.	.	4r	.	.	4r	.	4r	.	4r	.	4r	.
.	.	.	.	.	.	8aa\J	.	.	.	.	.	.	.	.	.	.	.	.	.	.	.	.	.	.	.	.	.
!	!	!	!	!	!	!	!	!	!	!	!	!	!	!	!	!	!	!	!	!LO:LB:g=original	!	!LO:LB:g=original	!	!	!	!LO:LB:g=original	!
=7	=7	=7	=7	=7	=7	=7	=7	=7	=7	=7	=7	=7	=7	=7	=7	=7	=7	=7	=7	=7	=7	=7	=7	=7	=7	=7	=7
*2\right	*	*	*	*2\right	*	*	*	*2\right	*	*	*2\right	*	*	*	*	*	*2\right	*	*	*	*	*	*	*	*	*	*
*tremolo	*	*	*	*tremolo	*	*	*	*	*	*	*	*	*	*	*	*	*	*	*	*	*	*	*	*	*	*	*
!	!	!	!	!	!	!	!	!	!	!	!	!	!	!	!	!	!	!	!	!LO:TX:a:t=P:problem=brak taktu	!	!	!	!	!	!	!
8D\L	.	8d\L	.	16ff\LL	.	16bb-\LL	.	2D\	et	.	2d\	et	.	2f\	et	.	2b-\	et	.	2.ryy	.	4f\	.	4ff\	.	4bb-\	.
.	.	.	.	16ff\	.	16bb-\	.	.	.	.	.	.	.	.	.	.	.	.	.	.	.	.	.	.	.	.	.
8D\	.	8f\	.	16ff\	.	16bb-\	.	.	.	.	.	.	.	.	.	.	.	.	.	.	.	.	.	.	.	.	.
.	.	.	.	16ff\	.	16bb-\JJ	.	.	.	.	.	.	.	.	.	.	.	.	.	.	.	.	.	.	.	.	.
*	*	*	*	*	*	*2\right	*	*	*	*	*	*	*	*	*	*	*	*	*	*	*	*	*	*	*	*	*
*	*	*	*	*	*	*tremolo	*	*	*	*	*	*	*	*	*	*	*	*	*	*	*	*	*	*	*	*	*
8D\	.	8d\	.	16ff\	.	16bb-\LL	.	.	.	.	.	.	.	.	.	.	.	.	.	.	.	4r	.	8r	.	8r	.
.	.	.	.	16ff\	.	16bb-\	.	.	.	.	.	.	.	.	.	.	.	.	.	.	.	.	.	.	.	.	.
8D\	.	8f\	.	16ff\	.	16bb-\	.	.	.	.	.	.	.	.	.	.	.	.	.	.	.	.	.	8b-\L	.	8ff\L	.
.	.	.	.	16ff\	.	16bb-\	.	.	.	.	.	.	.	.	.	.	.	.	.	.	.	.	.	.	.	.	.
8D\	.	8d\	.	16ff\	.	16bb-\	.	4D\	a-	.	4d\	a-	.	4f\	a-	.	4b-\	a-	.	.	.	4r	.	8b-\	.	8ff\	.
.	.	.	.	16ff\	.	16bb-\	.	.	.	.	.	.	.	.	.	.	.	.	.	.	.	.	.	.	.	.	.
8D\J	.	8f\J	.	16ff\	.	16bb-\	.	.	.	.	.	.	.	.	.	.	.	.	.	.	.	.	.	8b-\J	.	8ff\J	.
.	.	.	.	16ff\JJ	.	16bb-\JJ	.	.	.	.	.	.	.	.	.	.	.	.	.	.	.	.	.	.	.	.	.
*	*	*	*	*	*	*Xtremolo	*	*	*	*	*	*	*	*	*	*	*	*	*	*	*	*	*	*	*	*	*
!	!	!	!	!LO:LB:g=original	!	!	!	!	!	!	!	!	!	!	!	!	!	!	!	!	!	!	!	!LO:LB:g=original	!	!	!
=8	=8	=8	=8	=8	=8	=8	=8	=8	=8	=8	=8	=8	=8	=8	=8	=8	=8	=8	=8	=8	=8	=8	=8	=8	=8	=8	=8
*	*	*	*	*	*	*	*	*	*	*	*	*	*	*	*	*	*	*	*	*2\right	*	*2\right	*	*	*	*	*
8GG/L	.	8d\L	.	16ff\LL	.	16bbn\LL	.	4G\	-scen-	.	4d\	-scen-	.	4f\	-scen-	.	4bn\	-scen-	.	2.g\	.	2.g\	.	4dd\	.	4ff\	.
.	.	.	.	16ff\	.	16bb\	.	.	.	.	.	.	.	.	.	.	.	.	.	.	.	.	.	.	.	.	.
8GG/	.	8g\	.	16ff\	.	16bb\	.	.	.	.	.	.	.	.	.	.	.	.	.	.	.	.	.	.	.	.	.
.	.	.	.	16ff\JJ	.	16bb\JJ	.	.	.	.	.	.	.	.	.	.	.	.	.	.	.	.	.	.	.	.	.
*	*	*	*	*	*	*tremolo	*	*	*	*	*	*	*	*	*	*	*	*	*	*	*	*	*	*	*	*	*
8GG/	.	8d\	.	16ff\LL	.	16bb\LL	.	4G\	-dit	.	4d\	-dit	.	4f\	-dit	.	4b\	-dit	.	.	.	.	.	8r	.	8r	.
.	.	.	.	16ff\	.	16bb\	.	.	.	.	.	.	.	.	.	.	.	.	.	.	.	.	.	.	.	.	.
8GG/	.	8g\	.	16ff\	.	16bb\	.	.	.	.	.	.	.	.	.	.	.	.	.	.	.	.	.	8dd\L	.	8ff\L	.
.	.	.	.	16ff\JJ	.	16bb\	.	.	.	.	.	.	.	.	.	.	.	.	.	.	.	.	.	.	.	.	.
8GG/	.	8d\	.	16ff\LL	.	16bb\	.	4G\	in	.	4d\	in	.	4f\	in	.	4b\	in	.	.	.	.	.	8dd\	.	8ff\	.
.	.	.	.	16ff\	.	16bb\	.	.	.	.	.	.	.	.	.	.	.	.	.	.	.	.	.	.	.	.	.
8GG/J	.	8g\J	.	16ff\	.	16bb\	.	.	.	.	.	.	.	.	.	.	.	.	.	.	.	.	.	8dd\J	.	8ff\J	.
.	.	.	.	16ff\JJ	.	16bb\JJ	.	.	.	.	.	.	.	.	.	.	.	.	.	.	.	.	.	.	.	.	.
*Xtremolo	*	*	*	*Xtremolo	*	*Xtremolo	*	*	*	*	*	*	*	*	*	*	*	*	*	*	*	*	*	*	*	*	*
!	!	!	!	!	!	!	!	!LO:LB:g=original	!	!	!	!	!	!	!	!	!	!	!	!	!	!	!	!	!	!	!
=9	=9	=9	=9	=9	=9	=9	=9	=9	=9	=9	=9	=9	=9	=9	=9	=9	=9	=9	=9	=9	=9	=9	=9	=9	=9	=9	=9
4C/	.	4g\	.	4ee\	.	8ccc\L	.	4c\	Cae-	.	4c\	cae-	.	4e\	Cae-	.	4cc\	Cae-	.	4c/	.	4g\	.	4cc\	.	4ee\	.
.	.	.	.	.	.	8cc\J	.	.	.	.	.	.	.	.	.	.	.	.	.	.	.	.	.	.	.	.	.
8r	.	8r	.	8r	f	(4.ccc\	.	4C/	-lum	.	4c\	-lum	.	4e\	-lum	.	4cc\	-lum	.	4r	.	4r	.	8r	.	8r	.
8C/L	.	8g\L	.	8ee\L	.	.	.	.	.	.	.	.	.	.	.	.	.	.	.	.	.	.	.	8cc\L	.	8ee\L	.
8E/	.	8g\	.	8gg\	.	.	.	8E\L	se-	.	4e\	se-	.	8g\L	se-	.	8cc\L	se-	.	4r	.	4r	.	8cc\	.	8gg\	.
8D/J	.	8g\J	.	8ff\J	.	8bb-\)	.	8D\J	.	.	.	.	.	8f\J	.	.	8b-X\J	.	.	.	.	.	.	8cc\J	.	8ff\J	.
=10	=10	=10	=10	=10	=10	=10	=10	=10	=10	=10	=10	=10	=10	=10	=10	=10	=10	=10	=10	=10	=10	=10	=10	=10	=10	=10	=10
!	!	!	!	!	!	!LO:TX:a:t=P:problem=mixed beam	!	!	!	!	!	!	!	!	!	!	!	!	!	!	!	!	!	!	!	!	!
4C#X/	.	4g\	.	4ee\	.	8aa\L	.	2C#X/	-det	.	2e\	-det	.	2g\	-det	.	2a\	-det	.	4A/	.	4a\	.	4a\	.	4ee\	.
.	.	.	.	.	.	8a/J	.	.	.	.	.	.	.	.	.	.	.	.	.	.	.	.	.	.	.	.	.
8r	.	8r	.	8r	.	4.aa\	.	.	.	.	.	.	.	.	.	.	.	.	.	4r	.	4r	.	8r	.	8r	.
8A\L	.	8a\L	.	8cc#X\L	.	.	.	.	.	.	.	.	.	.	.	.	.	.	.	.	.	.	.	8cc#X\L	.	8aa\L	.
*	*	*	*	*	*	*	*below	*	*	*	*	*	*	*	*	*	*	*	*	*	*	*	*	*	*	*	*
8Bn\	.	8a\	.	8dd\	.	.	sf	4A\	ad	.	4A\	ad	.	8a\L	ad	.	4ee\	ad	.	4r	.	4r	.	8dd\	.	8aa\	.
!LO:SIC:v:s=8c#\J	!	!	!	!	!	!	!	!	!	!	!	!	!	!	!	!	!	!	!	!	!	!	!	!	!	!	!
8cn\J	.	8a\J	.	8ee\J	.	8gg\	.	.	.	.	.	.	.	8g\J	.	.	.	.	.	.	.	.	.	8ee\J	.	8gg\J	.
!	!	!	!	!	!	!LO:LB:g=original	!	!	!	!	!	!	!	!	!	!	!LO:LB:g=original	!	!	!	!	!	!	!	!	!	!
=11	=11	=11	=11	=11	=11	=11	=11	=11	=11	=11	=11	=11	=11	=11	=11	=11	=11	=11	=11	=11	=11	=11	=11	=11	=11	=11	=11
8d\L	.	4a\	.	4a/	.	8ff#X\L	.	4.D\	dex-	.	4.A\	dex-	.	4.f#X\	dex-	.	4.dd\	dex-	.	4A/	.	4a\	.	4dd\	.	4ff#X\	.
8D\J	.	.	.	.	.	8aa\J	.	.	.	.	.	.	.	.	.	.	.	.	.	.	.	.	.	.	.	.	.
4.d\	.	8r	.	8r	.	(4.ddd\	sf	.	.	.	.	.	.	.	.	.	.	.	.	4r	.	4r	.	8r	.	8r	.
.	.	8f#X\L	.	8dd\L	.	.	.	8d\	-ter-	.	8A\	-ter-	.	8f#\	-ter-	.	8dd\	-ter-	.	.	.	.	.	8dd\L	.	8ff#\L	.
.	.	8g\	.	8dd\	.	.	.	4cn\	-ram	.	4A\	-ram	.	4f#\	-ram	.	4dd\	-ram	.	4r	.	4r	.	8dd\	.	8gg\	.
8c\	.	8a\J	.	8dd\J	.	8ff#\)	.	.	.	.	.	.	.	.	.	.	.	.	.	.	.	.	.	8dd\J	.	8aa\J	.
!	!	!	!	!	!	!	!	!	!	!	!	!	!	!LO:LB:g=original	!	!	!	!	!	!	!	!	!	!	!	!	!
=12	=12	=12	=12	=12	=12	=12	=12	=12	=12	=12	=12	=12	=12	=12	=12	=12	=12	=12	=12	=12	=12	=12	=12	=12	=12	=12	=12
!	!	!	!	!	!	!	!	!	!	!	!LO:SIC:v:s=4B-\	!	!	!	!	!	!	!	!	!	!	!	!	!	!	!	!
4B-X\	.	4g\	.	4dd\	.	8gg\L	.	4B-X\	Pa-	.	4Bn\	Pa-	.	4g\	pa-	.	4dd\	pa-	.	4g\	.	4g\	.	4dd\	.	4gg\	.
.	.	.	.	.	.	8bb-\J	.	.	.	.	.	.	.	.	.	.	.	.	.	.	.	.	.	.	.	.	.
!	!	!	!	!	!	!	!	!	!	!	!LO:SIC:v:s=4B-\	!	!	!	!	!	!	!	!	!	!	!	!	!	!	!	!
8r	.	8r	.	8r	.	(4.ddd\	sf	4G\	-tris	.	4B\	-tris	.	4g\	-tris	.	4dd\	-tris	.	4r	.	4r	.	8r	.	8r	.
8G\L	.	8g\L	.	8b-\L	.	.	.	.	.	.	.	.	.	.	.	.	.	.	.	.	.	.	.	8b-\L	.	8bb-\L	.
8A\	.	8g\	.	8cc\	.	.	.	4B-\	et	.	4d\	et	.	4g\	et	.	4ffn\	et	.	4r	.	4r	.	8cc\	.	8gg\	.
8B-\J	.	8g\J	.	8dd\J	.	8ffn\)	.	.	.	.	.	.	.	.	.	.	.	.	.	.	.	.	.	8dd\J	.	8ff\J	.
!	!	!LO:LB:g=original	!	!	!	!	!	!	!	!	!LO:LB:g=original	!	!	!	!	!	!	!	!	!	!	!	!	!	!	!	!
=13	=13	=13	=13	=13	=13	=13	=13	=13	=13	=13	=13	=13	=13	=13	=13	=13	=13	=13	=13	=13	=13	=13	=13	=13	=13	=13	=13
4c\	.	4g\	.	4g/	.	8ee\L	.	4.c\	i-	.	4.B-\	i-	.	4.g\	i-	.	4.ee\	i-	.	4c/	.	4g\	.	4g/	.	4ee\	.
.	.	.	.	.	.	8gg\J	.	.	.	.	.	.	.	.	.	.	.	.	.	.	.	.	.	.	.	.	.
8r	.	8r	.	8r	.	(4.bb-X\	sf	.	.	.	.	.	.	.	.	.	.	.	.	8r	.	8r	.	8r	.	8r	.
8G\L	.	8g\L	.	8ee\L	.	.	.	8C/	-te-	.	8B-\	-te-	.	8g\	-te-	.	8ee\	-te-	.	8c/L	.	8g\L	.	8ee\L	.	8bb-\L	.
8E\	.	8g\	.	8gg\	.	.	.	8C/	-rum	.	8B-\	-rum	.	8g\	-rum	.	8ee\	-rum	.	8c/	.	8g\	.	8gg\	.	8bb-\	.
8D-X\J	.	8g\J	.	8ff\J	.	8gg\)	.	8D-X/	ven-	.	8B-\	ven-	.	8g\	ven-	.	8ff\	ven-	.	8g/J	.	8g\J	.	8ff\J	.	8bb-\J	.
!LO:LB:g=original	!	!	!	!	!	!	!	!	!	!	!	!	!	!	!	!	!	!	!	!	!	!	!	!	!	!LO:LB:g=original	!
=14	=14	=14	=14	=14	=14	=14	=14	=14	=14	=14	=14	=14	=14	=14	=14	=14	=14	=14	=14	=14	=14	=14	=14	=14	=14	=14	=14
4C/	.	4b-\	.	4ee\	.	8ee\L	.	4.C/	-tu-	.	4.B-\	-tu-	.	4.g\	-tu-	.	4.ee\	-tu-	.	4c/	.	4g\	.	4gg\	.	4bb-\	.
.	.	.	.	.	.	8gg\J	.	.	.	.	.	.	.	.	.	.	.	.	.	.	.	.	.	.	.	.	.
8r	.	8r	.	8r	.	(4.bb-\	sf	.	.	.	.	.	.	.	.	.	.	.	.	8r	.	8r	.	8r	.	8r	.
*	*	*	*	*	*	*	*	*custos:C	*	*	*	*	*	*	*	*	*	*	*	*	*	*	*	*	*	*	*
8G\L	.	8g\L	.	8e/L	.	.	.	8G\	-rus	.	8B-\	-rus	.	8g\	-rus	.	8ee\	-rus	.	8c/L	.	8g\L	.	8ee\L	.	8bb-\L	.
!	!	!	!	!	!	!	!	!LO:LB:g=original	!	!	!	!	!	!	!	!	!	!	!	!	!	!	!	!	!	!	!
8E\	.	8e\	.	8g/	.	.	.	8E\	est	.	8B-\	est	.	8g\	est	.	8ee\	est	.	8c/	.	8g\	.	8gg\	.	8bb-\	.
8D-X\J	.	8g\J	.	8e/J	.	8gg\)	.	8D-X\	cum	.	8B-\	cum	.	8g\	cum	.	8ff\	cum	.	8g/J	.	8g\J	.	8ff\J	.	8bb-\J	.
!	!	!	!	!	!	!	!	!	!	!	!	!	!	!	!	!	!	!	!	!	!	!LO:LB:g=original	!	!	!	!	!
=15	=15	=15	=15	=15	=15	=15	=15	=15	=15	=15	=15	=15	=15	=15	=15	=15	=15	=15	=15	=15	=15	=15	=15	=15	=15	=15	=15
!	!	!	!	!	!	!	!	!	!	!	!LO:N:vis=4.	!	!	!	!	!	!LO:N:vis=4.	!	!	!LO:TX:a:i:t=Solo.	!	!LO:TX:a:i:t=Solo.	!	!	!	!	!
4C\	.	4b-\	.	4g/	.	4ee\	.	8.C/	glo-	.	8.B-\	glo-	.	8.g\	glo-	.	8.ee\	glo-	.	4c/	.	4g\	.	8ee\L	.	8.bb-\L	.
.	.	.	.	.	.	.	.	.	.	.	.	.	.	.	.	.	.	.	.	.	.	.	.	8gg\	.	.	.
.	.	.	.	.	.	.	.	16C/	-ri-	.	16B-\	-ri-	.	16g\	-ri-	.	16ee\	-ri-	.	.	.	.	.	.	.	(32aa\LL	.
.	.	.	.	.	.	.	.	.	.	.	.	.	.	.	.	.	.	.	.	.	.	.	.	.	.	32bb-\JJJ)	.
!	!	!	!	!	!	!	!	!	!	!	!	!	!	!	!	!	!LO:N:vis=8	!	!	!LO:TX:a:t=P:problem=mixed beam	!	!	!	!	!	!	!
4C\	.	4c 4C/	.	4cc 4e 4G/	.	4cc 4e 4G/	.	4C/	-a	.	4B-\	-a	.	4g\	-a	.	4ee\	-a	.	8c/L	.	8g\L	.	8ee\	.	8ccc\L	.
*	*	*	*	*	*	*	*	*	*	*	*	*	*	*	*	*	*	*	*	*	*	*	*	*custos:b	*	*	*
.	.	.	.	.	.	.	.	.	.	.	.	.	.	.	.	.	.	.	.	8g\	.	8b-\	.	8gg\J	.	8bb-\	.
!	!	!	!	!	!	!	!	!	!	!	!	!	!	!	!	!	!	!	!	!	!	!	!	!LO:LB:g=original	!	!	!
4r	.	4r	.	4r	.	4r	.	4r	.	.	4r	.	.	4r	.	.	4r	.	.	8f\	.	8a\	.	8ff\L	.	8aa\	.
.	.	.	.	.	.	.	.	.	.	.	.	.	.	.	.	.	.	.	.	8c\J	.	8g\J	.	8ee\J	.	8gg\J	.
!	!	!	!	!LO:LB:g=original	!	!	!	!	!	!	!	!	!	!	!	!	!LO:LB:g=original	!	!	!	!	!	!	!	!	!	!
=16	=16	=16	=16	=16	=16	=16	=16	=16	=16	=16	=16	=16	=16	=16	=16	=16	=16	=16	=16	=16	=16	=16	=16	=16	=16	=16	=16
!LO:TX:b:i:t=Solo.	!	!	!	!	!	!	!	!LO:TX:a:i:t=Solo.	!	!	!LO:TX:a:t=3.	!	!	!LO:TX:a:t=3.	!	!	!LO:TX:a:t=3	!	!	!	!	!	!	!	!	!	!
4F\	.	8F/L	.	8r	.	8r	.	2F\	Ju-	.	1.r	.	.	1.r	.	.	1.r	.	.	4A/	.	4f\	.	4ff\	.	4ff\	.
!	!	!	!	!	!	!LO:TX:a:i:t=Solo.	!	!	!	!	!	!	!	!	!	!	!	!	!	!	!	!	!	!	!	!	!
.	.	(8A/	.	8c/L	.	8f'/L	p	.	.	.	.	.	.	.	.	.	.	.	.	.	.	.	.	.	.	.	.
4r	.	8c/	.	(8e-X/	p	8f'/	.	.	.	.	.	.	.	.	.	.	.	.	.	4r	.	4r	.	4r	.	4r	.
.	.	8A/	.	8c/	.	8f'/	.	.	.	.	.	.	.	.	.	.	.	.	.	.	.	.	.	.	.	.	.
!	!	!	!	!	!	!	!	!	!	!	!	!	!	!	!	!	!	!	!	!	!	!	!	!	!	!LO:TX:a:i:t=Solo&colon;	!
4r	.	8c/	.	8e-/	.	8f#X'/	.	4F#X\	-di-	.	.	.	.	.	.	.	.	.	.	4r	.	4r	.	4r	.	4ff#X\	.
.	.	8A/J)	.	8c/J)	.	8f#'/J	.	.	.	.	.	.	.	.	.	.	.	.	.	.	.	.	.	.	.	.	.
!	!	!	!	!	!	!LO:LB:g=original	!	!	!	!	!	!	!	!	!	!	!	!	!	!	!	!	!	!	!	!	!
=17	=17	=17	=17	=17	=17	=17	=17	=17	=17	=17	=17	=17	=17	=17	=17	=17	=17	=17	=17	=17	=17	=17	=17	=17	=17	=17	=17
!	!	!	!	!	!	!	!	!	!	!	!	!	!	!	!	!	!	!	!	!LO:TX:a:t=2.	!	!LO:TX:a:t=2.	!	!LO:TX:a:t=2.	!	!	!
4FF/	.	8B-/L	.	8d/L	.	8r	.	(4G\	-ca-	.	.	.	.	.	.	.	.	.	.	1.r	.	1.r	.	1.r	.	4.gg\	.
.	.	8D/	.	8B-/	.	8g'/L	.	.	.	.	.	.	.	.	.	.	.	.	.	.	.	.	.	.	.	.	.
4r	.	8B-/	.	8d/	.	8g'/	.	4B-\)	.	.	.	.	.	.	.	.	.	.	.	.	.	.	.	.	.	.	.
!	!	!	!	!	!	!	!	!	!	!	!	!	!	!	!	!	!	!	!	!	!	!	!	!	!	!LO:TX:a:t=P:problem=mordent z # na dole	!
.	.	8G/	.	8B-/	.	8g'/	.	.	.	.	.	.	.	.	.	.	.	.	.	.	.	.	.	.	.	8ggsSSS\	.
4r	.	8B-/	.	8d-X/	.	(8b-/	.	4E\	-re	.	.	.	.	.	.	.	.	.	.	.	.	.	.	.	.	(8bb-\L	.
.	.	8G/J	.	8B-/J	.	8e/J)	.	.	.	.	.	.	.	.	.	.	.	.	.	.	.	.	.	.	.	8ee\J)	.
=18	=18	=18	=18	=18	=18	=18	=18	=18	=18	=18	=18	=18	=18	=18	=18	=18	=18	=18	=18	=18	=18	=18	=18	=18	=18	=18	=18
4FF/	.	8F/L	.	8A/L	.	(8g/L	.	8G\L	vi-	.	2.r	.	.	2.r	.	.	2.r	.	.	.	.	.	.	.	.	(8gg\L	.
.	.	8A/J	.	8c/J	.	8f/)	.	8F\J	.	.	.	.	.	.	.	.	.	.	.	.	.	.	.	.	.	8ff\J)	.
!	!	!	!	!	!	!LO:SIC:v:s=(8c/	!	!	!	!	!	!	!	!	!	!	!	!	!	!	!	!	!	!	!	!	!
4r	.	4F/	.	4A/	.	(8d/	.	4F\	-vos	.	.	.	.	.	.	.	.	.	.	.	.	.	.	.	.	4ff\	.
.	.	.	.	.	.	8f/)	.	.	.	.	.	.	.	.	.	.	.	.	.	.	.	.	.	.	.	.	.
!	!	!LO:TX:b:i:t=Verte	!	!	!	!	!	!	!	!	!	!	!	!	!	!	!	!	!	!	!	!	!	!	!	!	!
4r	.	4r	.	4r	.	8a/|	.	4r	.	.	.	.	.	.	.	.	.	.	.	.	.	.	.	.	.	4r	.
.	.	.	.	.	.	8cc/|J	.	.	.	.	.	.	.	.	.	.	.	.	.	.	.	.	.	.	.	.	.
!	!	!LO:PB:g=original	!	!	!	!	!	!	!	!	!	!	!	!	!	!	!	!	!	!LO:LB:g=original	!	!	!	!	!	!	!
=19	=19	=19	=19	=19	=19	=19	=19	=19	=19	=19	=19	=19	=19	=19	=19	=19	=19	=19	=19	=19	=19	=19	=19	=19	=19	=19	=19
*	*	*	*	*	*	*	*	*	*	*	*	*	*	*2\right	*	*	*	*	*	*	*	*	*	*2\right	*	*2\right	*
!	!	!	!	!	!	!LO:TX:a:t=P:problem=mixed beam	!	!LO:TX:a:i:rj:t=T.	!	!LO:DY:a	!	!	!LO:DY:a	!	!	!LO:DY:a:rj	!	!	!LO:DY:a	!	!	!	!	!	!	!	!
4AA/	p	8F/L	.	(8c/L	.	(8ee-X\L	.	2.AA/	et	p	2.c\	et	p	2.e-X\	et	p	2.f/	et	p	4F/	.	4f\	p	2cc\	.	2ee-\	p
.	.	(8A/	.	8f/	.	8f^/)	.	.	.	.	.	.	.	.	.	.	.	.	.	.	.	.	.	.	.	.	.
4r	.	8F/	.	8c/	.	8f'>/	.	.	.	.	.	.	.	.	.	.	.	.	.	4r	.	4r	.	.	.	.	.
.	.	8A/	.	8f/	.	8f'>/	.	.	.	.	.	.	.	.	.	.	.	.	.	.	.	.	.	.	.	.	.
4AA/	.	8F/)	.	8c/	.	(8ee-\	sf	.	.	.	.	.	.	.	.	.	.	.	.	4F/	.	4f\	.	4cc\	.	4ee-\	.
.	.	8A/J	.	8f/J)	.	8f/J)	.	.	.	.	.	.	.	.	.	.	.	.	.	.	.	.	.	.	.	.	.
=20	=20	=20	=20	=20	=20	=20	=20	=20	=20	=20	=20	=20	=20	=20	=20	=20	=20	=20	=20	=20	=20	=20	=20	=20	=20	=20	=20
!	!	!	!	!	!	!LO:TX:a:t=P:problem=mixed beam	!	!	!	!	!	!	!	!	!	!	!	!	!	!	!	!	!	!	!	!	!
4BB-/	.	(8F/L	.	(8d/L	.	(8dd\L	.	2BB-/	mor-	.	2B-\	mor-	.	2d\	mor-	.	2f/	mor-	.	4F/	.	4f\	.	2b-\	.	2dd\	.
.	.	8B-/	.	8f/	.	8f^/)	.	.	.	.	.	.	.	.	.	.	.	.	.	.	.	.	.	.	.	.	.
4r	.	8F/	.	8d/	.	8f/|>	.	.	.	.	.	.	.	.	.	.	.	.	.	4r	.	4r	.	.	.	.	.
.	.	8B-/	.	8f/	.	8f/|>	.	.	.	.	.	.	.	.	.	.	.	.	.	.	.	.	.	.	.	.	.
4BB-/	.	8F/	.	8d/	.	(8dd\	.	4BB-/	-tu-	.	4B-\	-tu-	.	4d\	-tu-	.	4f/	-tu-	.	4F/	.	4f\	.	4b-\	.	4dd\	.
.	.	8B-/J)	.	8f/J)	.	8f^/J)	.	.	.	.	.	.	.	.	.	.	.	.	.	.	.	.	.	.	.	.	.
!	!	!	!	!	!	!	!	!LO:LB:g=original	!	!	!	!	!	!LO:LB:g=original	!	!	!	!	!	!	!	!	!	!	!	!LO:LB:g=original	!
=21	=21	=21	=21	=21	=21	=21	=21	=21	=21	=21	=21	=21	=21	=21	=21	=21	=21	=21	=21	=21	=21	=21	=21	=21	=21	=21	=21
!	!	!	!	!	!	!	!	!LO:TX:b:t=a	!	!	!	!	!	!	!	!	!	!	!	!	!	!	!	!	!	!	!
4AA/	.	8F/L	.	(8c/L	.	(8ee-X\L	.	4AA/	-os	.	4c\	-os	.	4e-X\	-os	.	4f/	-os	.	4F/	.	4f\	.	2cc\	.	2ee-\	.
.	.	(8A/	.	8f/	.	8f^/)	.	.	.	.	.	.	.	.	.	.	.	.	.	.	.	.	.	.	.	.	.
4r	.	8F/	.	8c/	.	8f'/	.	4r	.	.	4r	.	.	4r	.	.	4r	.	.	4r	.	4r	.	.	.	.	.
.	.	8A/	.	8f/	.	8f'/J	.	.	.	.	.	.	.	.	.	.	.	.	.	.	.	.	.	.	.	.	.
4r	.	8F/	.	8c/	.	(8ee-\L	.	4r	.	.	4r	.	.	4r	.	.	4r	.	.	4F/	.	4f\	.	4cc\	.	4ee-\	.
.	.	8A/J)	.	8f/J)	.	8cc\J)	.	.	.	.	.	.	.	.	.	.	.	.	.	.	.	.	.	.	.	.	.
!	!	!	!	!	!	!	!	!	!	!	!LO:LB:g=original	!	!	!	!	!	!	!	!	!	!	!	!	!	!	!	!
=22	=22	=22	=22	=22	=22	=22	=22	=22	=22	=22	=22	=22	=22	=22	=22	=22	=22	=22	=22	=22	=22	=22	=22	=22	=22	=22	=22
!	!	!	!	!	!	!	!	!LO:TX:a:t=11.	!	!	!LO:TX:a:t=10.	!	!	!LO:TX:a:t=10.	!	!	!LO:TX:a:i:t=Solo.	!	!	!	!	!	!	!	!	!	!
4BB-/	.	4B-/	.	8d/	.	(8cc#X\L	.	0.r	.	.	0.r	.	.	0.r	.	.	4dd\	Cu-	.	4F/	.	4f\	.	4b-\	.	4dd\	.
.	.	.	.	4d/	.	8dd\	.	.	.	.	.	.	.	.	.	.	.	.	.	.	.	.	.	.	.	.	.
4r	.	4r	.	.	.	8ccn\	.	.	.	.	.	.	.	.	.	.	(8cc\L	.	.	4r	.	4r	.	4r	p	4r	.
.	.	.	.	4d/	.	8b-\	.	.	.	.	.	.	.	.	.	.	8b-\J)	.	.	.	.	.	.	.	.	.	.
4B-\	.	4B-/	.	.	.	8a\)	.	.	.	.	.	.	.	.	.	.	8a\L	-jus	.	4r	.	4r	.	4d/	.	4dd\	pp
.	.	.	.	8d/	.	8g\J|	.	.	.	.	.	.	.	.	.	.	8g\J	.	.	.	.	.	.	.	.	.	.
!LO:LB:g=original	!	!	!	!LO:LB:g=original	!	!	!	!	!	!	!	!	!	!	!	!	!	!	!	!	!	!	!	!	!	!	!
=23	=23	=23	=23	=23	=23	=23	=23	=23	=23	=23	=23	=23	=23	=23	=23	=23	=23	=23	=23	=23	=23	=23	=23	=23	=23	=23	=23
!	!	!	!	!	!	!	!	!	!	!	!	!	!	!	!	!	!	!	!	!LO:TX:a:t=8	!	!LO:TX:a:t=8	!	!	!	!	!
!	!	!	!	!	!	!	!	!	!	!	!	!	!	!	!	!	!	!	!	!LO:TX:b:t=8.	!	!LO:TX:b:t=8.	!	!	!	!	!
4A\	.	4c\	.	8d/	.	(8g/L	.	.	.	.	.	.	.	.	.	.	8g/L	Re-	.	0.r	.	0.r	.	2.d/	.	2.dd\	.
.	.	.	.	4d/	.	8f#X/)	.	.	.	.	.	.	.	.	.	.	8f#X/J	.	.	.	.	.	.	.	.	.	.
4r	.	8c/L	.	.	.	8f#/|	.	.	.	.	.	.	.	.	.	.	4f#/	-gni	.	.	.	.	.	.	.	.	.
.	.	8B-/	.	4d'/	.	8f#/|	.	.	.	.	.	.	.	.	.	.	.	.	.	.	.	.	.	.	.	.	.
4A\	.	8A/	.	.	.	(8f#/	.	.	.	.	.	.	.	.	.	.	8r	.	.	.	.	.	.	.	.	.	.
.	.	8G/J	.	8d/	.	8a/J)	.	.	.	.	.	.	.	.	.	.	8a\	non	.	.	.	.	.	.	.	.	.
!	!	!	!	!	!	!LO:PB:g=original	!	!	!	!	!	!	!	!	!	!	!	!	!	!	!	!	!	!	!	!	!
=24	=24	=24	=24	=24	=24	=24	=24	=24	=24	=24	=24	=24	=24	=24	=24	=24	=24	=24	=24	=24	=24	=24	=24	=24	=24	=24	=24
4F#X\	.	4F#X/	.	8d/	.	(8cc#X\L	.	.	.	.	.	.	.	.	.	.	2dd\	e-	.	.	.	.	.	2.d/	.	2.dd\	.
.	.	.	.	4d'/	.	8dd\)	.	.	.	.	.	.	.	.	.	.	.	.	.	.	.	.	.	.	.	.	.
4D\	.	4A/	.	.	.	8dd\	.	.	.	.	.	.	.	.	.	.	.	.	.	.	.	.	.	.	.	.	.
.	.	.	.	4d/	.	8dd\	.	.	.	.	.	.	.	.	.	.	.	.	.	.	.	.	.	.	.	.	.
4F#\	.	4F#/	.	.	.	8dd\	.	.	.	.	.	.	.	.	.	.	4cc\	-rit	.	.	.	.	.	.	.	.	.
.	.	.	.	8d/	.	8ccn\J	.	.	.	.	.	.	.	.	.	.	.	.	.	.	.	.	.	.	.	.	.
!	!	!	!	!	!	!	!	!	!	!	!	!	!	!	!	!	!LO:LB:g=original	!	!	!	!	!	!	!	!	!	!
=25	=25	=25	=25	=25	=25	=25	=25	=25	=25	=25	=25	=25	=25	=25	=25	=25	=25	=25	=25	=25	=25	=25	=25	=25	=25	=25	=25
4G\	.	(8A/L	.	8d/	.	(8cc\L	.	.	.	.	.	.	.	.	.	.	8cc\L	fi-	.	.	.	.	.	2.d/	.	2.dd\	.
.	.	8G/)	.	4d/	.	8b-\)	.	.	.	.	.	.	.	.	.	.	8b-\J	.	.	.	.	.	.	.	.	.	.
4D\	.	8G/|	.	.	.	8b-\	.	.	.	.	.	.	.	.	.	.	4b-\	-nis	.	.	.	.	.	.	.	.	.
*	*	*custos:c	*	*	*	*	*	*	*	*	*	*	*	*	*	*	*	*	*	*	*	*	*	*	*	*	*
.	.	8G/J|	.	8d/	.	8b-\	.	.	.	.	.	.	.	.	.	.	.	.	.	.	.	.	.	.	.	.	.
!	!	!LO:LB:g=original	!	!	!	!	!	!	!	!	!	!	!	!	!	!	!	!	!	!	!	!	!	!	!	!	!
4G\	.	(8d\L	.	8B-/L	.	8dd\	.	.	.	.	.	.	.	.	.	.	4r	.	.	.	.	.	.	.	.	.	.
.	.	8B-\J)	.	8d/J	.	8gg\J	.	.	.	.	.	.	.	.	.	.	.	.	.	.	.	.	.	.	.	.	.
=26	=26	=26	=26	=26	=26	=26	=26	=26	=26	=26	=26	=26	=26	=26	=26	=26	=26	=26	=26	=26	=26	=26	=26	=26	=26	=26	=26
4En\	.	4G/	.	8e 8B-/	.	(8bb-^<\L	.	0.r	.	.	0.r	.	.	0.r	.	.	2cc#X\	Cu-	.	.	.	.	.	2.b-\	.	2.cc#X\	.
.	.	.	.	4e/	.	8cc#X\)	.	.	.	.	.	.	.	.	.	.	.	.	.	.	.	.	.	.	.	.	.
4r	.	4B-/	.	.	.	8cc#\|	.	.	.	.	.	.	.	.	.	.	.	.	.	.	.	.	.	.	.	.	.
.	.	.	.	4e/	.	8cc#\|	.	.	.	.	.	.	.	.	.	.	.	.	.	.	.	.	.	.	.	.	.
4G\	.	4c#X/	.	.	.	(8bb-\	sf	.	.	.	.	.	.	.	.	.	4cc#\	-jus	.	.	.	.	.	.	.	.	.
.	.	.	.	8e/	.	8cc#\J)	.	.	.	.	.	.	.	.	.	.	.	.	.	.	.	.	.	.	.	.	.
=27	=27	=27	=27	=27	=27	=27	=27	=27	=27	=27	=27	=27	=27	=27	=27	=27	=27	=27	=27	=27	=27	=27	=27	=27	=27	=27	=27
4F#X\	.	4d/	.	8d/L	.	(8aa\L	.	.	.	.	.	.	.	.	.	.	4dd\	Re-	.	0.r	.	0.r	.	4a\	.	4dd\	.
.	.	.	.	8A/	.	8dd\)	.	.	.	.	.	.	.	.	.	.	.	.	.	.	.	.	.	.	.	.	.
4Fn\	.	8A-X/L	.	8d/	.	(8bn\	.	.	.	.	.	.	.	.	.	.	4bn\	-gni	.	.	.	.	.	4r	.	4r	.
.	.	8d/	.	8Bn/	.	8aa-X\)	.	.	.	.	.	.	.	.	.	.	.	.	.	.	.	.	.	.	.	.	.
4E\	.	8en/	.	8c/	.	8gg'\	.	.	.	.	.	.	.	.	.	.	4ccn\	non	.	.	.	.	.	4r	.	4r	.
.	.	8c/J	.	8e/J	.	8cc'\J	.	.	.	.	.	.	.	.	.	.	.	.	.	.	.	.	.	.	.	.	.
!	!	!	!	!	!	!	!	!	!	!	!	!	!	!	!	!	!	!	!	!	!	!	!	!LO:LB:g=original	!	!	!
=28	=28	=28	=28	=28	=28	=28	=28	=28	=28	=28	=28	=28	=28	=28	=28	=28	=28	=28	=28	=28	=28	=28	=28	=28	=28	=28	=28
!	!	!	!	!	!	!	!	!	!	!	!	!	!	!	!	!	!	!	!	!	!	!	!	!LO:TX:a:t=1.	!	!LO:TX:a:t=1.	!
4E-X\	.	4c\	.	8g-X/L	.	(8a\L	.	.	.	.	.	.	.	.	.	.	(4a\	e-	.	.	.	.	.	2.r	.	2.r	.
.	.	.	.	8b-/J	.	8gg-X\)	.	.	.	.	.	.	.	.	.	.	.	.	.	.	.	.	.	.	.	.	.
4D\	.	4d\	.	4b-/	.	8ff\|	.	.	.	.	.	.	.	.	.	.	4b-X\)	.	.	.	.	.	.	.	.	.	.
.	.	.	.	.	.	8b-\|	.	.	.	.	.	.	.	.	.	.	.	.	.	.	.	.	.	.	.	.	.
4D-X\	.	4B-\	.	4f/	.	(8ff\	.	.	.	.	.	.	.	.	.	.	4b-\	-rit	.	.	.	.	.	.	.	.	.
.	.	.	.	.	.	8b-\J)	.	.	.	.	.	.	.	.	.	.	.	.	.	.	.	.	.	.	.	.	.
=29	=29	=29	=29	=29	=29	=29	=29	=29	=29	=29	=29	=29	=29	=29	=29	=29	=29	=29	=29	=29	=29	=29	=29	=29	=29	=29	=29
2.D-X\	.	2Bn/	.	4f/	.	(8aa-X\L	.	.	.	.	.	.	.	.	.	.	2.bn\	fi-	.	.	.	.	.	(4a-X/	.	2.bX\	p
!	!	!	!	!	!	!	!LO:HP:t=cres.	!	!	!	!	!	!	!	!	!	!	!	!	!	!	!	!	!	!	!	!
.	.	.	.	.	.	8bn\	<	.	.	.	.	.	.	.	.	.	.	.	.	.	.	.	.	.	.	.	.
.	.	.	.	4g/	.	8gg\	.	.	.	.	.	.	.	.	.	.	.	.	.	.	.	.	.	4g/	.	.	.
.	.	.	.	.	.	8b\	.	.	.	.	.	.	.	.	.	.	.	.	.	.	.	.	.	.	.	.	.
.	.	4B/	.	8a-X/L	.	8ff\)	.	.	.	.	.	.	.	.	.	.	.	.	.	.	.	.	.	4f/)	.	.	.
.	.	.	.	8f/J	.	8b\J	.	.	.	.	.	.	.	.	.	.	.	.	.	.	.	.	.	.	.	.	.
!	!	!	!	!LO:LB:g=original	!	!	!	!	!	!	!	!	!	!	!	!	!	!	!	!	!	!	!	!	!	!	!
=30	=30	=30	=30	=30	=30	=30	=30	=30	=30	=30	=30	=30	=30	=30	=30	=30	=30	=30	=30	=30	=30	=30	=30	=30	=30	=30	=30
4C\	.	4c\	.	4g/	.	8ee\L	.	1.r	.	.	1.r	.	.	1.r	.	.	4cc\	-nis	.	.	.	.	.	4enX/	.	4cc\	.
.	.	.	.	.	.	(8cc\	.	.	.	.	.	.	.	.	.	.	.	.	.	.	.	.	.	.	.	.	.
4C\	.	4c\	.	4e/	.	8bn\	f	.	.	.	.	.	.	.	.	.	4r	.	.	.	.	.	.	4e/	.	4cc\	.
.	.	.	.	.	.	8cc\)	.	.	.	.	.	.	.	.	.	.	.	.	.	.	.	.	.	.	.	.	.
4r	.	4r	.	4r	.	8ee'\	.	.	.	.	.	.	.	.	.	.	4r	.	.	.	.	.	.	4r	.	4r	.
.	.	.	.	.	.	8gg'\J	.	.	.	.	.	.	.	.	.	.	.	.	.	.	.	.	.	.	.	.	.
!	!	!	!	!	!	!LO:LB:g=original	!	!	!	!	!	!	!	!	!	!	!	!	!	!	!	!	!	!	!	!	!
=31	=31	=31	=31	=31	=31	=31	=31	=31	=31	=31	=31	=31	=31	=31	=31	=31	=31	=31	=31	=31	=31	=31	=31	=31	=31	=31	=31
!	!	!	!LO:DY:rj	!	!LO:DY:rj:t=f.	!	!	!	!	!	!	!	!	!	!	!	!LO:TX:a:t=1.	!	!	!	!	!	!	!	!	!	!
4C/	.	4en 4B- 4C/	f	4b- 4g\	f	4bb-\	.	.	.	.	.	.	.	.	.	.	2.r	.	.	4c/	.	4g\	f	8r	.	8r	.
!	!	!	!	!	!	!	!	!	!	!	!	!	!	!	!	!	!	!	!	!	!	!	!	!	!	!	!LO:DY:t=f.
.	.	.	.	.	.	.	.	.	.	.	.	.	.	.	.	.	.	.	.	.	.	.	.	8g\L	f	8cc\L	f
!	!	!	!	!	!	!	!	!	!	!	!	!	!	!	!	!	!	!	!	!	!	!LO:SIC:v:s=4g\	!	!	!	!	!
4C/	f	4e 4B- 4G 4C/	.	4b- 4g\	.	4ee 4b- 4g\	.	.	.	.	.	.	.	.	.	.	.	.	.	4c/	.	4f\	.	8cc\	.	8ee\	.
.	.	.	.	.	.	.	.	.	.	.	.	.	.	.	.	.	.	.	.	.	.	.	.	8ee\	.	8gg\	.
4r	.	4r	.	4r	.	4r	.	.	.	.	.	.	.	.	.	.	.	.	.	4r	.	4r	.	8gg\	.	8bb-\	.
.	.	.	.	.	.	.	.	.	.	.	.	.	.	.	.	.	.	.	.	.	.	.	.	8b-\J	.	8ee\J	.
!LO:LB:g=original	!	!LO:LB:g=original	!	!	!	!	!	!	!	!	!	!	!	!	!	!	!LO:LB:g=original	!	!	!	!	!	!	!	!	!LO:LB:g=original	!
=32	=32	=32	=32	=32	=32	=32	=32	=32	=32	=32	=32	=32	=32	=32	=32	=32	=32	=32	=32	=32	=32	=32	=32	=32	=32	=32	=32
!LO:TX:t=P:problem=nadmiarowa pauza w B	!	!LO:TX:t=P:problem=nadmiarowa pauza w B	!	!LO:TX:t=P:problem=nadmiarowa pauza w B	!	!LO:TX:t=P:problem=nadmiarowa pauza w B	!	!LO:TX:t=P:problem=nadmiarowa pauza	!	!	!LO:TX:t=P:problem=nadmiarowa pauza w B	!	!	!LO:TX:t=P:problem=nadmiarowa pauza w B	!	!	!LO:TX:t=P:problem=nadmiarowa pauza w B	!	!	!LO:TX:t=P:problem=nadmiarowa pauza w B	!	!LO:TX:t=P:problem=nadmiarowa pauza w B	!	!LO:TX:t=P:problem=nadmiarowa pauza w B	!	!LO:TX:t=P:problem=nadmiarowa pauza w B	!
2.ryy	.	2.ryy	.	2.ryy	.	2.ryy	.	2.r	.	.	2.ryy	.	.	2.ryy	.	.	2.ryy	.	.	2.ryy	.	2.ryy	.	2.ryy	.	2.ryy	.
=33	=33	=33	=33	=33	=33	=33	=33	=33	=33	=33	=33	=33	=33	=33	=33	=33	=33	=33	=33	=33	=33	=33	=33	=33	=33	=33	=33
!	!	!	!	!	!	!LO:TX:a:i:t=Tu&colon;	!	!LO:TX:a:i:t=T.	!	!LO:DY:a:t=f.	!LO:TX:a:i:t=T.	!	!LO:DY:a:t=f&colon;	!	!	!LO:DY:a:rj	!LO:TX:a:i:t=Tutti	!	!	!	!	!	!	!	!	!	!
4FF/	.	4c\	.	4a 4f\	.	4ff 4a\	.	2F\	Et	f	2c\	Et	f	2a\	et	f	2ff\	Et	.	4A/	f	4f\	.	4a\	.	4ff\	f
!	!	!	!LO:DY:rj	!	!	!	!LO:DY:a	!	!	!	!	!	!	!	!	!	!	!	!	!	!	!	!	!	!	!	!
4AA/	.	4c\	f	4a 4f\	.	4ff 4a\	f	.	.	.	.	.	.	.	.	.	.	.	.	4A/	.	4f\	.	4a\	.	4ff\	.
!	!	!	!	!	!	!	!	!	!	!	!	!	!	!	!	!	!	!	!LO:DY:a	!	!	!	!	!	!	!	!
4C/	.	4c\	.	4a 4f\	.	4ff 4a\	.	4F\	ex-	.	4c\	ex-	.	4a\	ex-	.	4ff\	ex-	f	4A/	.	4f\	.	4a\	.	4ff\	.
!	!	!	!	!	!	!	!	!	!	!	!	!	!	!	!	!	!	!	!	!	!	!LO:LB:g=original	!	!	!	!	!
=34	=34	=34	=34	=34	=34	=34	=34	=34	=34	=34	=34	=34	=34	=34	=34	=34	=34	=34	=34	=34	=34	=34	=34	=34	=34	=34	=34
4F\	.	4c\	.	4a 4f\	.	8ffL 8a\	.	4F\	-pe-	.	4c\	-pe-	.	4a\	-pe-	.	4ff\	-pe-	.	4A/	.	4f\	.	4a\	.	4ff\	.
.	.	.	.	.	.	8cc\	.	.	.	.	.	.	.	.	.	.	.	.	.	.	.	.	.	.	.	.	.
4FF/	.	4c\	.	4a 4f\	.	8dd\	.	4F\	-cto	.	4c\	-cto	.	4a\	-cto	.	4ff\	-cto	.	4A/	.	4f\	.	4a\	.	4ff\	.
.	.	.	.	.	.	8ee\	.	.	.	.	.	.	.	.	.	.	.	.	.	.	.	.	.	.	.	.	.
4r	.	4r	.	4r	.	8ff\	.	4r	.	.	4r	.	.	4r	.	.	4r	.	.	4r	.	4r	.	4r	.	4r	.
.	.	.	.	.	.	8gg\J	.	.	.	.	.	.	.	.	.	.	.	.	.	.	.	.	.	.	.	.	.
=35	=35	=35	=35	=35	=35	=35	=35	=35	=35	=35	=35	=35	=35	=35	=35	=35	=35	=35	=35	=35	=35	=35	=35	=35	=35	=35	=35
!	!	!	!	!	!	!	!	!	!	!	!LO:SIC:v:s=8e\	!	!	!	!	!	!	!	!	!	!	!	!	!	!	!	!
4C#X\	.	4e 4c#X\	.	4a 4e\	.	4aa\	.	8C#X/	re-	.	8d\	re-	.	8a\	re-	.	8ee\	re-	.	4A/	.	4a\	.	4ee\	.	4aa\	.
!	!	!	!	!	!	!	!	!	!	!	!LO:SIC:v:s=8e\	!	!	!	!	!	!	!	!	!	!	!	!	!	!	!	!
.	.	.	.	.	.	.	.	8C#/	-sur-	.	8d\	-sur-	.	8a\	-sur-	.	8ee\	-sur-	.	.	.	.	.	.	.	.	.
!	!	!	!	!	!	!	!	!	!	!	!LO:SIC:v:s=4e\	!	!	!	!	!	!	!	!	!	!	!	!	!	!	!	!
4E\	.	4e 4c#\	.	4a 4e\	.	4aa 4a\	.	4C#/	-re-	.	4d\	-re-	.	4a\	-re-	.	4ee\	-re-	.	4A/	.	4a\	.	4ee\	.	4aa\	.
!	!	!	!	!	!	!	!	!LO:SIC:v:s=4c#\	!	!	!LO:SIC:v:s=4e\	!	!	!	!	!	!	!	!	!	!	!	!	!	!	!	!
4A\	.	4e 4c#\	.	4a 4e\	.	4aa 4a\	.	4c\	-cti-	.	4d\	-cti-	.	4a\	-cti-	.	4ee\	-cti-	.	4A/	.	4a\	.	4ee\	.	4aa\	.
=36	=36	=36	=36	=36	=36	=36	=36	=36	=36	=36	=36	=36	=36	=36	=36	=36	=36	=36	=36	=36	=36	=36	=36	=36	=36	=36	=36
!	!	!	!	!	!	!	!	!	!	!	!LO:SIC:v:s=4e\	!	!	!LO:TX:a:t=P:problem=1 takt wykreślony	!	!	!	!	!	!	!	!	!	!	!	!	!
4c#X\	.	4e 4c#X\	.	4a 4e\	.	8aaL 8a\	.	4c#X\	-o-	.	4d\	-o-	.	4a\	-o-	.	4ee\	-o-	.	4A/	.	4a\	.	4ee\	.	4aa\	.
.	.	.	.	.	.	8a\	.	.	.	.	.	.	.	.	.	.	.	.	.	.	.	.	.	.	.	.	.
!LO:SIC:v:s=4C#/	!	!	!	!	!	!	!	!	!	!	!LO:SIC:v:s=4e\	!	!	!	!	!	!	!	!	!	!	!	!	!	!	!	!
4C/	.	4e 4c#\	.	4a 4e\	.	8cc#X\	.	4c#\	-nem	.	4d\	-nem	.	4a\	-nem	.	4ee\	-nem	.	4A/	.	4a\	.	4a\	.	4a\	.
.	.	.	.	.	.	8ee\	.	.	.	.	.	.	.	.	.	.	.	.	.	.	.	.	.	.	.	.	.
4r	.	4r	.	4r	.	8aa\	.	4r	.	.	4r	.	.	4r	.	.	4r	.	.	4r	.	4r	.	4r	.	4r	.
.	.	.	.	.	.	8gg\J	.	.	.	.	.	.	.	.	.	.	.	.	.	.	.	.	.	.	.	.	.
!	!	!	!	!	!	!	!	!LO:LB:g=original	!	!	!	!	!	!LO:LB:g=original	!	!	!	!	!	!LO:LB:g=original	!	!	!	!	!	!	!
=37	=37	=37	=37	=37	=37	=37	=37	=37	=37	=37	=37	=37	=37	=37	=37	=37	=37	=37	=37	=37	=37	=37	=37	=37	=37	=37	=37
*	*	*^	*	*	*	*	*	*	*	*	*	*	*	*	*	*	*	*	*	*	*	*	*	*	*	*	*
4Cn/	.	4d/	4cn\	.	4a 4d\	.	4ff#X\	.	8cn\	re-	.	8A\	re-	.	8f#X\	re-	.	8dd\	re-	.	4A/	.	4a\	.	4a\	.	4ff#X\	.
.	.	.	.	.	.	.	.	.	8c\	-ſur-	.	8A\	-sur-	.	8f#\	-sur-	.	8dd\	-sur-	.	.	.	.	.	.	.	.	.
4c\	.	4d/	4c\	.	4a 4d\	.	4ff# 4a\	.	4c\	-re-	.	4A\	-re-	.	4f#\	-re-	.	4dd\	-re-	.	4A/	.	4a\	.	4dd\	.	4aa\	.
4c\	.	4d/	4c\	.	4a 4d\	.	4ff# 4a\	.	4c\	-cti-	.	4A\	-cti-	.	4f#\	-cti-	.	4dd\	-cti-	.	4A/	.	4a\	.	4dd\	.	4aa\	.
!	!	!	!	!	!	!	!	!	!	!	!	!	!	!	!	!	!	!	!	!	!	!	!	!	!LO:LB:g=original	!	!	!
=38	=38	=38	=38	=38	=38	=38	=38	=38	=38	=38	=38	=38	=38	=38	=38	=38	=38	=38	=38	=38	=38	=38	=38	=38	=38	=38	=38	=38
!	!	!	!	!	!	!	!	!	!	!	!	!	!	!	!	!	!	!	!	!	!	!	!	!	!	!	!LO:SIC:v:s=4ff#\	!
4c\	.	4d/	4c\	.	4a 4d\	.	8ff#XL 8a\	.	4c\	-o-	.	4A\	-o-	.	4f#X\	-o-	.	4dd\	-o-	.	4A/	.	4a\	.	4dd\	.	4ff\	.
.	.	.	.	.	.	.	8dd\	.	.	.	.	.	.	.	.	.	.	.	.	.	.	.	.	.	.	.	.	.
4C/	.	4d/	4c\	.	4a 4d\	.	8ff#\	.	4c\	-nem	.	4A\	-nem	.	4f#\	-nem	.	4dd\	-nem	.	4A/	.	4a\	.	4f#X/	.	4dd\	.
.	.	.	.	.	.	.	8aa\	.	.	.	.	.	.	.	.	.	.	.	.	.	.	.	.	.	.	.	.	.
4r	.	4r	4ryy	.	4r	.	8ddd\	.	4r	.	.	4r	.	.	4r	.	.	4r	.	.	4r	.	4r	.	4r	.	4r	.
.	.	.	.	.	.	.	8ff#\J	.	.	.	.	.	.	.	.	.	.	.	.	.	.	.	.	.	.	.	.	.
*	*	*v	*v	*	*	*	*	*	*	*	*	*	*	*	*	*	*	*	*	*	*	*	*	*	*	*	*	*
!	!	!	!	!LO:LB:g=original	!	!LO:LB:g=original	!	!	!	!	!LO:LB:g=original	!	!	!	!	!	!LO:LB:g=original	!	!	!	!	!	!	!	!	!	!
=39	=39	=39	=39	=39	=39	=39	=39	=39	=39	=39	=39	=39	=39	=39	=39	=39	=39	=39	=39	=39	=39	=39	=39	=39	=39	=39	=39
!	!	!	!	!	!	!	!	!	!	!	!	!	!LO:DY:a	!	!	!LO:DY:a	!	!	!	!	!	!	!	!	!	!	!
4B-\	.	4d 4B-/	.	4g/	.	4gg\	.	4r	.	.	4r	.	p	4r	.	p	4r	.	.	4g\	.	4g\	.	4dd\	.	4gg\	.
!	!	!	!	!	!	!	!	!LO:SIC:v:s=4BB-/	!	!LO:DY:a:rj	!	!	!	!	!	!	!	!	!LO:DY:a	!	!	!	!	!	!	!	!
4r	.	4r	.	4r	.	4r	.	4AA/	mor-	p	4B-\	mor-	.	4d\	mor-	.	4g\	mor-	p	4r	.	4r	.	4r	.	4r	.
!LO:TX:b:i:t=Verte	!	!	!	!	!	!	!	!	!	!	!	!	!	!	!	!	!	!	!	!	!	!	!	!	!	!	!
4r	.	4r	.	4r	.	4r	.	4BB-/	-tu-	.	4B-\	-tu-	.	4d\	-tu-	.	4g\	-tu-	.	4r	.	4r	.	4r	.	4r	.
!LO:PB:g=original	!	!LO:LB:g=original	!	!	!	!	!	!	!	!	!	!	!	!	!	!	!	!	!	!	!	!	!	!	!	!	!
=40	=40	=40	=40	=40	=40	=40	=40	=40	=40	=40	=40	=40	=40	=40	=40	=40	=40	=40	=40	=40	=40	=40	=40	=40	=40	=40	=40
!	!	!	!	!	!	!	!	!	!	!	!	!	!	!	!	!	!	!	!	!LO:TX:a:t=9	!	!	!	!	!	!	!
!	!	!	!	!	!	!	!	!	!	!	!	!	!	!	!	!	!	!	!	!LO:TX:b:t=9.	!	!LO:TX:a:t=9.	!	!	!	!	!
4BBn/	.	4Bn/	p	4d/	p	8r	.	(2.BBn/	-o-	.	(2.Bn\	-o-	.	(2.d\	-o-	.	[2.g\	-o-	.	0.r	.	0.r	.	2.dd\	p	2.ff\	.
!	!	!	!	!	!	!	!LO:DY:rj	!	!	!	!	!	!	!	!	!	!	!	!	!	!	!	!	!	!	!	!
.	.	.	.	.	.	8g/L|	p	.	.	.	.	.	.	.	.	.	.	.	.	.	.	.	.	.	.	.	.
4r	.	4d/	.	4f/	.	8g/|	.	.	.	.	.	.	.	.	.	.	.	.	.	.	.	.	.	.	.	.	.
.	.	.	.	.	.	8g/|	.	.	.	.	.	.	.	.	.	.	.	.	.	.	.	.	.	.	.	.	.
!	!	!	!	!	!	!	!>LO:DY:t=sf	!	!	!	!	!	!	!	!	!	!	!	!	!	!	!	!	!	!	!	!
4r	.	8r	.	8r	.	(8a-X/	sf	.	.	.	.	.	.	.	.	.	.	.	.	.	.	.	.	.	.	.	.
.	.	8B/	.	8d/	.	8g/J)	.	.	.	.	.	.	.	.	.	.	.	.	.	.	.	.	.	.	.	.	.
=41	=41	=41	=41	=41	=41	=41	=41	=41	=41	=41	=41	=41	=41	=41	=41	=41	=41	=41	=41	=41	=41	=41	=41	=41	=41	=41	=41
4C/	.	4c\	.	4e-X/	.	8r	.	2.C/)	.	.	2.c\)	.	.	2.e-X\)	.	.	2.g\]	.	.	.	.	.	.	2.cc\	.	2.ee-\	.
.	.	.	.	.	.	8g/L|	.	.	.	.	.	.	.	.	.	.	.	.	.	.	.	.	.	.	.	.	.
4r	.	4e-X\	.	4g/	.	8g/|	.	.	.	.	.	.	.	.	.	.	.	.	.	.	.	.	.	.	.	.	.
.	.	.	.	.	.	8g/|	.	.	.	.	.	.	.	.	.	.	.	.	.	.	.	.	.	.	.	.	.
4r	.	8r	.	8r	.	(8a-X/	sf	.	.	.	.	.	.	.	.	.	.	.	.	.	.	.	.	.	.	.	.
.	.	8c\	.	8e-/	.	8g/J)	.	.	.	.	.	.	.	.	.	.	.	.	.	.	.	.	.	.	.	.	.
=42	=42	=42	=42	=42	=42	=42	=42	=42	=42	=42	=42	=42	=42	=42	=42	=42	=42	=42	=42	=42	=42	=42	=42	=42	=42	=42	=42
4BB-X/	.	4B-X/	.	4d/	.	8r	.	2BB-X/	-rum	.	2d\	-rum	.	2.d\	-rum	.	2.g\	-rum	.	.	.	.	.	2.dd\	.	2.gg\	.
.	.	.	.	.	.	8g/L|	.	.	.	.	.	.	.	.	.	.	.	.	.	.	.	.	.	.	.	.	.
4r	.	4d/	.	4f/	.	8g/|	.	.	.	.	.	.	.	.	.	.	.	.	.	.	.	.	.	.	.	.	.
.	.	.	.	.	.	8g/|	.	.	.	.	.	.	.	.	.	.	.	.	.	.	.	.	.	.	.	.	.
!	!	!	!	!	!	!	!LO:DY:t=sf	!	!	!	!	!	!	!	!	!	!	!	!	!	!	!	!	!	!	!	!
4r	.	8r	.	8r	.	(8an/	sf	4r	.	.	4r	.	.	.	.	.	.	.	.	.	.	.	.	.	.	.	.
.	.	8B-/	.	8d/	.	8g/J)	.	.	.	.	.	.	.	.	.	.	.	.	.	.	.	.	.	.	.	.	.
!	!	!	!	!	!	!	!	!LO:LB:g=original	!	!	!	!	!	!	!	!	!	!	!	!	!	!	!	!	!	!LO:LB:g=original	!
=43	=43	=43	=43	=43	=43	=43	=43	=43	=43	=43	=43	=43	=43	=43	=43	=43	=43	=43	=43	=43	=43	=43	=43	=43	=43	=43	=43
4AA/	.	4A/	.	4c/	.	8r	.	2AA/	mor-	.	2d\	mor-	.	2cn\	mor-	.	2f#X/	mor-	.	.	.	.	.	2.cc\	.	2.ff#X\	.
.	.	.	.	.	.	8f#X/L|	.	.	.	.	.	.	.	.	.	.	.	.	.	.	.	.	.	.	.	.	.
4r	.	4c/	.	4c/	.	8f#/|	.	.	.	.	.	.	.	.	.	.	.	.	.	.	.	.	.	.	.	.	.
.	.	.	.	.	.	8f#/|	.	.	.	.	.	.	.	.	.	.	.	.	.	.	.	.	.	.	.	.	.
4r	.	8r	.	8r	.	(8g/	sf	4AA/	-tu-	.	4c\	-tu-	.	4c\	-tu-	.	4f#/	-tu-	.	.	.	.	.	.	.	.	.
.	.	8A/	.	8c#X/	.	8f#/J)	.	.	.	.	.	.	.	.	.	.	.	.	.	.	.	.	.	.	.	.	.
=44	=44	=44	=44	=44	=44	=44	=44	=44	=44	=44	=44	=44	=44	=44	=44	=44	=44	=44	=44	=44	=44	=44	=44	=44	=44	=44	=44
4GG/	.	8G/L	.	8Bn/L	.	8r	.	2.GG/	-o-	.	2.Bn\	-o-	.	2.d\	-o-	.	2.fn/	-o-	.	0.r	.	0.r	.	(2bX\	.	2.ffn\	.
.	.	8Bn/J	.	8d/J	.	8fn/L|	.	.	.	.	.	.	.	.	.	.	.	.	.	.	.	.	.	.	.	.	.
4r	.	4d/	.	4f/	.	8f/|	.	.	.	.	.	.	.	.	.	.	.	.	.	.	.	.	.	.	.	.	.
.	.	.	.	.	.	8f/|	.	.	.	.	.	.	.	.	.	.	.	.	.	.	.	.	.	.	.	.	.
!	!	!	!	!	!	!	!LO:DY:t=sf	!	!	!	!	!	!	!	!	!	!	!	!	!	!	!	!	!	!	!	!
4r	.	8r	.	8r	.	(8g/	sf	.	.	.	.	.	.	.	.	.	.	.	.	.	.	.	.	4dd\)	.	.	.
.	.	8B/	.	8d/	.	8f/J)	.	.	.	.	.	.	.	.	.	.	.	.	.	.	.	.	.	.	.	.	.
!	!	!	!	!	!	!	!	!	!	!	!	!	!	!LO:LB:g=original	!	!	!	!	!	!	!	!	!	!	!	!	!
=45	=45	=45	=45	=45	=45	=45	=45	=45	=45	=45	=45	=45	=45	=45	=45	=45	=45	=45	=45	=45	=45	=45	=45	=45	=45	=45	=45
4C/	.	4G/	.	4B-X/	.	8r	.	(2C/	.	.	[2.G/	.	.	[2.B-/	.	.	2e/	.	.	.	.	.	.	2.b-X\	.	(2eenX\	.
.	.	.	.	.	.	8e/L|	.	.	.	.	.	.	.	.	.	.	.	.	.	.	.	.	.	.	.	.	.
4r	.	4r	.	4r	.	8e/|	.	.	.	.	.	.	.	.	.	.	.	.	.	.	.	.	.	.	.	.	.
.	.	.	.	.	.	8e/|	.	.	.	.	.	.	.	.	.	.	.	.	.	.	.	.	.	.	.	.	.
4D-X/	.	4G/	.	4B-/	.	(8g/	sf	4D-X/)	.	.	.	.	.	.	.	.	8g/L	.	.	.	.	.	.	.	.	4gg\)	.
.	.	.	.	.	.	8f/J)	.	.	.	.	.	.	.	.	.	.	8f/J	.	.	.	.	.	.	.	.	.	.
!	!	!	!	!	!	!LO:LB:g=original	!	!	!	!	!	!	!	!	!	!	!	!	!	!	!	!	!	!	!	!	!
=46	=46	=46	=46	=46	=46	=46	=46	=46	=46	=46	=46	=46	=46	=46	=46	=46	=46	=46	=46	=46	=46	=46	=46	=46	=46	=46	=46
4C/	.	4G/	.	4B-/	.	8r	.	(2C/	.	.	2.G/]	.	.	2.B-/]	.	.	2e/	.	.	.	.	.	.	(2eenX\	.	(4.bb-\	.
.	.	.	.	.	.	8e/L|	.	.	.	.	.	.	.	.	.	.	.	.	.	.	.	.	.	.	.	.	.
4r	.	4r	.	4r	.	8e/|	.	.	.	.	.	.	.	.	.	.	.	.	.	.	.	.	.	.	.	.	.
.	.	.	.	.	.	8e/|	.	.	.	.	.	.	.	.	.	.	.	.	.	.	.	.	.	.	.	8aa\L	.
.	.	.	.	.	.	.	.	.	.	.	.	.	.	.	.	.	8qqg/	.	.	.	.	.	.	.	.	.	.
!LO:SIC:v:s=4D-/	!	!	!	!	!	!	!	!	!	!	!	!	!	!	!	!	!	!	!	!	!	!	!	!	!	!	!
4D/	.	4G/	.	4B-/	.	(8g/	.	4D-X/)	.	.	.	.	.	.	.	.	4f/	.	.	.	.	.	.	4b-\)	.	8gg\	.
.	.	.	.	.	.	8f/J)	.	.	.	.	.	.	.	.	.	.	.	.	.	.	.	.	.	.	.	8ff\J)	.
!	!	!LO:LB:g=original	!	!LO:LB:g=original	!	!	!	!	!	!	!	!	!	!	!	!	!LO:LB:g=original	!	!	!	!	!	!	!	!	!	!
=47	=47	=47	=47	=47	=47	=47	=47	=47	=47	=47	=47	=47	=47	=47	=47	=47	=47	=47	=47	=47	=47	=47	=47	=47	=47	=47	=47
4C/	.	4G/	.	4B-/	.	8e/L	.	4C/	-rum	.	4G/	-rum	.	4B-/	-rum	.	4e/	-rum	.	.	.	.	.	4a\	.	4ee\	.
.	.	.	.	.	.	8g/J	.	.	.	.	.	.	.	.	.	.	.	.	.	.	.	.	.	.	.	.	.
!	!	!	!	!	!	!	!	!	!	!	!	!	!	!	!	!LO:DY:a	!	!	!	!	!	!	!	!	!	!	!
4r	.	4r	.	4r	.	(8cc\L	.	4r	.	.	4r	.	.	4r	.	f	4r	.	.	.	.	.	.	4ee\	.	4gg\	.
.	.	.	.	.	.	8ee\)	.	.	.	.	.	.	.	.	.	.	.	.	.	.	.	.	.	.	.	.	.
!	!	!	!	!	!	!	!	!	!	!	!	!	!LO:DY:a	!	!	!	!	!	!LO:DY:a:t=for	!	!	!	!	!	!	!	!
4E\	.	4c\	.	4g 4c/	.	8gg\|	f	4E\	et	.	4c\	et	f	4g\	et	.	4b-\	et	f	.	.	.	.	4gg\	.	4bb-\	.
.	.	.	.	.	.	8b-\J|	.	.	.	.	.	.	.	.	.	.	.	.	.	.	.	.	.	.	.	.	.
!LO:LB:g=original	!	!	!	!	!	!	!	!	!	!	!	!	!	!	!	!	!	!	!	!	!	!	!	!LO:LB:g=original	!	!	!
=48	=48	=48	=48	=48	=48	=48	=48	=48	=48	=48	=48	=48	=48	=48	=48	=48	=48	=48	=48	=48	=48	=48	=48	=48	=48	=48	=48
!	!	!	!	!	!	!	!	!LO:TX:a:i:rj:t=Tu&colon;	!	!	!	!	!	!	!	!	!	!	!	!	!	!	!	!	!	!	!
4F\	.	4c\	.	4a 4f\	.	(8a\L	.	4F\	vi-	.	4c\	vi-	.	4f\	vi-	.	4a\	vi-	.	2.r	.	2.r	.	2cc\	.	(4aa\	.
.	.	.	.	.	.	8cc\	.	.	.	.	.	.	.	.	.	.	.	.	.	.	.	.	.	.	.	.	.
!	!	!	!	!	!	!	!	!	!	!LO:DY:a	!	!	!	!	!	!	!	!	!	!	!	!	!	!	!	!	!
4A\	.	4r	.	4r	.	8ff\	.	4A\	-tam	f	4c\	-tam	.	4a\	-tam	.	4cc\	-tam	.	.	.	.	.	.	.	4ff\)	.
.	.	.	.	.	.	8aa\)	.	.	.	.	.	.	.	.	.	.	.	.	.	.	.	.	.	.	.	.	.
4A\	.	4f\	f	4f/	.	8ccc\|	.	4A\	ven-	.	4c\	ven-	.	4f\	ven-	.	4ff\	ven-	.	.	.	.	.	4cc\	.	4ff\	.
.	.	.	.	.	.	8ff\J|	.	.	.	.	.	.	.	.	.	.	.	.	.	.	.	.	.	.	.	.	.
!	!	!	!	!	!	!	!	!	!	!	!LO:LB:g=original	!	!	!	!	!	!	!	!	!	!	!	!	!	!	!	!
=49	=49	=49	=49	=49	=49	=49	=49	=49	=49	=49	=49	=49	=49	=49	=49	=49	=49	=49	=49	=49	=49	=49	=49	=49	=49	=49	=49
*	*	*2\right	*	*	*	*	*	*	*	*	*	*	*	*	*	*	*	*	*	*	*	*	*	*	*	*	*
*	*	*tremolo	*	*tremolo	*	*	*	*	*	*	*	*	*	*	*	*	*	*	*	*	*	*	*	*	*	*	*
8B-\L	.	8d\L	.	16f/LL	f	(8ddd\L	.	2B-\	-tu-	.	2B-\	-tu-	.	2f\	-tu-	.	2dd\	-tu-	.	4f\	.	4f\	.	4dd\	.	(4ff\	.
.	.	.	.	16f/	.	.	.	.	.	.	.	.	.	.	.	.	.	.	.	.	.	.	.	.	.	.	.
8B-\J	.	8d\	.	16f/	.	8dd\J)	.	.	.	.	.	.	.	.	.	.	.	.	.	.	.	.	.	.	.	.	.
.	.	.	.	16f/JJ	.	.	.	.	.	.	.	.	.	.	.	.	.	.	.	.	.	.	.	.	.	.	.
!LO:TX:a:t=P:problem=mixed beam	!	!	!	!	!	!	!	!	!	!	!	!	!	!	!	!	!	!	!	!	!	!	!	!	!	!	!
8BB-/L	.	8d\	.	16f/LL	.	8r	.	.	.	.	.	.	.	.	.	.	.	.	.	4f\	.	4f\	.	4b-\	.	4dd\)	.
.	.	.	.	16f/	.	.	.	.	.	.	.	.	.	.	.	.	.	.	.	.	.	.	.	.	.	.	.
8BB-/	.	8d\	.	16f/	.	8dd\L|	.	.	.	.	.	.	.	.	.	.	.	.	.	.	.	.	.	.	.	.	.
.	.	.	.	16f/JJ	.	.	.	.	.	.	.	.	.	.	.	.	.	.	.	.	.	.	.	.	.	.	.
8B-\	.	8d\	.	16f/LL	.	8dd\|	.	4B-\	-ri	.	4d\	-ri	.	4f\	-ri	.	4dd\	-ri	.	4f\	.	4f\	.	4b-\	.	4dd\	.
.	.	.	.	16f/	.	.	.	.	.	.	.	.	.	.	.	.	.	.	.	.	.	.	.	.	.	.	.
8B-\J	.	8d\J	.	16f/	.	8dd\J|	.	.	.	.	.	.	.	.	.	.	.	.	.	.	.	.	.	.	.	.	.
.	.	.	.	16f/JJ	.	.	.	.	.	.	.	.	.	.	.	.	.	.	.	.	.	.	.	.	.	.	.
=50	=50	=50	=50	=50	=50	=50	=50	=50	=50	=50	=50	=50	=50	=50	=50	=50	=50	=50	=50	=50	=50	=50	=50	=50	=50	=50	=50
8B-\L	.	8e\L	f	16g/LL	.	8ee\L	.	(4B-\	sae-	.	2c\	Sae-	.	2g\	se-	.	(4ee\	Sae-	.	2c/	.	2g\	.	2cc\	.	4.ee\	.
.	.	.	.	16g/	.	.	.	.	.	.	.	.	.	.	.	.	.	.	.	.	.	.	.	.	.	.	.
8B-\J	.	8e\	.	16g/	.	8gg\J	.	.	.	.	.	.	.	.	.	.	.	.	.	.	.	.	.	.	.	.	.
.	.	.	.	16g/JJ	.	.	.	.	.	.	.	.	.	.	.	.	.	.	.	.	.	.	.	.	.	.	.
8G\L	.	8e\	.	16g/LL	.	8ccc\L	.	4G\)	.	.	.	.	.	.	.	.	4gg\)	.	.	.	.	.	.	.	.	.	.
.	.	.	.	16g/	.	.	.	.	.	.	.	.	.	.	.	.	.	.	.	.	.	.	.	.	.	.	.
8G\J	.	8e\J	.	16g/	.	8bb-\	.	.	.	.	.	.	.	.	.	.	.	.	.	.	.	.	.	.	.	8gg\L	.
.	.	.	.	16g/JJ	.	.	.	.	.	.	.	.	.	.	.	.	.	.	.	.	.	.	.	.	.	.	.
*	*	*Xtremolo	*	*	*	*	*	*	*	*	*	*	*	*	*	*	*	*	*	*	*	*	*	*	*	*	*
8E\L	.	8g\L	.	16cc\LL	.	8aa\	.	4E\	-cu-	.	4c\	-cu-	.	4g\	-cu-	.	4b-\	-cu-	.	4c/	.	4g\	.	4gg\	.	8ccc\	.
.	.	.	.	16cc\	.	.	.	.	.	.	.	.	.	.	.	.	.	.	.	.	.	.	.	.	.	.	.
8E\J	.	8g\J	.	16cc\	.	8gg\J	.	.	.	.	.	.	.	.	.	.	.	.	.	.	.	.	.	.	.	8bb-\J	.
.	.	.	.	16cc\JJ	.	.	.	.	.	.	.	.	.	.	.	.	.	.	.	.	.	.	.	.	.	.	.
!	!	!	!	!	!	!	!	!LO:LB:g=original	!	!	!	!	!	!	!	!	!	!	!	!	!	!LO:LB:g=original	!	!	!	!	!
=51	=51	=51	=51	=51	=51	=51	=51	=51	=51	=51	=51	=51	=51	=51	=51	=51	=51	=51	=51	=51	=51	=51	=51	=51	=51	=51	=51
!LO:SIC:v:s=8F\L	!	!	!	!	!	!	!	!	!	!	!	!	!	!	!	!	!	!	!	!	!	!	!	!	!	!	!
8G\L	.	8f\L	.	16ff\LL	.	8aa\	.	4F\	-li	.	2c\	-li	.	4f\	-li	.	4a\	-li	.	2.f\	.	2.a\	.	4ff\	.	4aa\	.
.	.	.	.	16ff\	.	.	.	.	.	.	.	.	.	.	.	.	.	.	.	.	.	.	.	.	.	.	.
!LO:SIC:v:s=8G\	!	!	!	!	!	!	!	!	!	!	!	!	!	!	!	!	!	!	!	!	!	!	!	!	!	!	!
8A\	.	8g\	.	16ff\	.	4aa\	.	.	.	.	.	.	.	.	.	.	.	.	.	.	.	.	.	.	.	.	.
.	.	.	.	16ff\JJ	.	.	.	.	.	.	.	.	.	.	.	.	.	.	.	.	.	.	.	.	.	.	.
!LO:SIC:v:s=8F\	!	!	!	!	!	!	!	!	!	!	!	!	!	!	!	!	!	!	!	!	!	!	!	!	!	!	!
8G\	.	8f\	.	16ff\LL	.	.	.	8F\L	A-	.	.	.	.	4a\	A-	.	4ff\	A-	.	.	.	.	.	4ff\	.	4aa\	.
.	.	.	.	16ff\	.	.	.	.	.	.	.	.	.	.	.	.	.	.	.	.	.	.	.	.	.	.	.
!LO:SIC:v:s=8E\	!	!	!	!	!	!	!	!	!	!	!	!	!	!	!	!	!	!	!	!	!	!	!	!	!	!	!
8F\	.	8e\	.	16ff\	.	4aa\	.	8E\J	.	.	.	.	.	.	.	.	.	.	.	.	.	.	.	.	.	.	.
.	.	.	.	16ff\JJ	.	.	.	.	.	.	.	.	.	.	.	.	.	.	.	.	.	.	.	.	.	.	.
!LO:SIC:v:s=8D\	!	!	!	!	!	!	!	!	!	!	!	!	!	!	!	!	!	!	!	!	!	!	!	!	!	!	!
8E\	.	8d\	.	16ff\LL	.	.	.	8D\L	-men	.	4r	.	.	4a\	-men	.	4ff\	-men	.	.	.	.	.	4ff\	.	4aa\	.
.	.	.	.	16ff\	.	.	.	.	.	.	.	.	.	.	.	.	.	.	.	.	.	.	.	.	.	.	.
!LO:SIC:v:s=8C\J	!	!	!	!	!	!	!	!	!	!	!	!	!	!	!	!	!	!	!	!	!	!	!	!	!	!	!
8D\J	.	8c\J	.	16ff\	.	8aa\	.	8C\J	.	.	.	.	.	.	.	.	.	.	.	.	.	.	.	.	.	.	.
.	.	.	.	16ff\JJ	.	.	.	.	.	.	.	.	.	.	.	.	.	.	.	.	.	.	.	.	.	.	.
!	!	!	!	!	!	!	!	!	!	!	!	!	!	!	!	!	!	!	!	!	!	!	!	!	!	!LO:LB:g=original	!
=52	=52	=52	=52	=52	=52	=52	=52	=52	=52	=52	=52	=52	=52	=52	=52	=52	=52	=52	=52	=52	=52	=52	=52	=52	=52	=52	=52
*tremolo	*	*tremolo	*	*	*	*	*	*	*	*	*	*	*	*	*	*	*	*	*	*	*	*	*	*	*	*	*
8BB-/L	.	8c/L	.	16dd\LL	.	16gg\LL	.	2BB-/	A-	.	2d\	A-	.	2g\	A-	.	2dd\	A-	.	2.g\	.	2g\	.	2dd\	.	2gg\	.
.	.	.	.	16dd\	.	16gg\	.	.	.	.	.	.	.	.	.	.	.	.	.	.	.	.	.	.	.	.	.
8BB-/	.	8c/	.	16dd\	.	16gg\	.	.	.	.	.	.	.	.	.	.	.	.	.	.	.	.	.	.	.	.	.
.	.	.	.	16dd\JJ	.	16gg\JJ	.	.	.	.	.	.	.	.	.	.	.	.	.	.	.	.	.	.	.	.	.
8BB-/	.	8c/	.	16dd\LL	.	16bb-\LL	.	.	.	.	.	.	.	.	.	.	.	.	.	.	.	.	.	.	.	.	.
.	.	.	.	16dd\	.	16bb-\	.	.	.	.	.	.	.	.	.	.	.	.	.	.	.	.	.	.	.	.	.
8BB-/	.	8c/	.	16dd\	.	16bb-\	.	.	.	.	.	.	.	.	.	.	.	.	.	.	.	.	.	.	.	.	.
*	*	*	*	*	*	*custos:a	*	*	*	*	*	*	*	*	*	*	*	*	*	*	*	*	*	*	*	*	*
.	.	.	.	16dd\JJ	.	16bb-\JJ	.	.	.	.	.	.	.	.	.	.	.	.	.	.	.	.	.	.	.	.	.
!	!	!	!	!	!	!LO:LB:g=original	!	!	!	!	!	!	!	!	!	!	!	!	!	!	!	!	!	!	!	!	!
8BB-/	.	8c/	.	16dd\LL	.	16gg\LL	.	4B-\	-men	.	4d\	-men	.	4g\	-men	.	4dd\	-men.	.	.	.	4b-\	.	4dd\	.	4bb-\	.
.	.	.	.	16dd\	.	16gg\	.	.	.	.	.	.	.	.	.	.	.	.	.	.	.	.	.	.	.	.	.
8BB-/J	.	8c/J	.	16dd\	.	16gg\	.	.	.	.	.	.	.	.	.	.	.	.	.	.	.	.	.	.	.	.	.
.	.	.	.	16dd\JJ	.	16gg\JJ	.	.	.	.	.	.	.	.	.	.	.	.	.	.	.	.	.	.	.	.	.
=53	=53	=53	=53	=53	=53	=53	=53	=53	=53	=53	=53	=53	=53	=53	=53	=53	=53	=53	=53	=53	=53	=53	=53	=53	=53	=53	=53
8C/L	.	8c\L	.	16a 16f/LL	.	16ff\LL	.	(<2.c\	A-	.	2c\	A-	.	2a\	A-	.	(4cc\	A-	.	2.f\	.	2.a\	.	2.ff\	.	2.aa\	.
.	.	.	.	16a 16f/	.	16ff\	.	.	.	.	.	.	.	.	.	.	.	.	.	.	.	.	.	.	.	.	.
8C/	.	8c\	.	16a 16f/	.	16ff\	.	.	.	.	.	.	.	.	.	.	.	.	.	.	.	.	.	.	.	.	.
.	.	.	.	16a 16f/	.	16ff\JJ	.	.	.	.	.	.	.	.	.	.	.	.	.	.	.	.	.	.	.	.	.
8C/	.	8c\	.	16a 16f/	.	16aa\LL	.	.	.	.	.	.	.	.	.	.	4ff\)	.	.	.	.	.	.	.	.	.	.
.	.	.	.	16a 16f/	.	16aa\	.	.	.	.	.	.	.	.	.	.	.	.	.	.	.	.	.	.	.	.	.
8C/	.	8c\	.	16a 16f/	.	16aa\	.	.	.	.	.	.	.	.	.	.	.	.	.	.	.	.	.	.	.	.	.
.	.	.	.	16a 16f/	.	16aa\JJ	.	.	.	.	.	.	.	.	.	.	.	.	.	.	.	.	.	.	.	.	.
8C/	.	8c\	.	16a 16f/	.	16ff\LL	.	.	.	.	4c\	-men	.	4a\	-men	.	4ff\	-men	.	.	.	.	.	.	.	.	.
.	.	.	.	16a 16f/	.	16ff\	.	.	.	.	.	.	.	.	.	.	.	.	.	.	.	.	.	.	.	.	.
8C/J	.	8c\J	.	16a 16f/	.	16ff\	.	.	.	.	.	.	.	.	.	.	.	.	.	.	.	.	.	.	.	.	.
.	.	.	.	16a 16f/JJ	.	16ff\JJ	.	.	.	.	.	.	.	.	.	.	.	.	.	.	.	.	.	.	.	.	.
!	!	!	!	!	!	!	!	!	!	!	!	!	!	!LO:LB:g=original	!	!	!LO:LB:g=original	!	!	!	!	!	!	!	!	!	!
=54	=54	=54	=54	=54	=54	=54	=54	=54	=54	=54	=54	=54	=54	=54	=54	=54	=54	=54	=54	=54	=54	=54	=54	=54	=54	=54	=54
!LO:SIC:v:s=2.C	!	!	!	!	!	!	!	!	!	!	!	!	!	!	!	!	!	!	!	!	!	!	!	!	!	!	!
8D/L	.	8e 8c\L	.	16b- 16g/LL	.	16ee\LL	.	2.C/)	.	.	2.c\	A-	.	(2g\	A-	.	2.ee\	A-	.	2.c/	.	2.g\	.	2.ee\	.	2.gg\	.
.	.	.	.	16b- 16g/	.	16ee\	.	.	.	.	.	.	.	.	.	.	.	.	.	.	.	.	.	.	.	.	.
8D/	.	8e 8c\	.	16b- 16g/	.	16ee\	.	.	.	.	.	.	.	.	.	.	.	.	.	.	.	.	.	.	.	.	.
.	.	.	.	16b- 16g/	.	16ee\JJ	.	.	.	.	.	.	.	.	.	.	.	.	.	.	.	.	.	.	.	.	.
8D/	.	8e 8c\	.	16b- 16g/	.	16ccc\LL	.	.	.	.	.	.	.	.	.	.	.	.	.	.	.	.	.	.	.	.	.
.	.	.	.	16b- 16g/	.	16ccc\	.	.	.	.	.	.	.	.	.	.	.	.	.	.	.	.	.	.	.	.	.
8D/	.	8e 8c\	.	16b- 16g/	.	16ccc\	.	.	.	.	.	.	.	.	.	.	.	.	.	.	.	.	.	.	.	.	.
.	.	.	.	16b- 16g/	.	16ccc\JJ	.	.	.	.	.	.	.	.	.	.	.	.	.	.	.	.	.	.	.	.	.
8D/	.	8e 8c\	.	16b- 16g/	.	16ee\LL	.	.	.	.	.	.	.	4b-\)	.	.	.	.	.	.	.	.	.	.	.	.	.
.	.	.	.	16b- 16g/	.	16ee\	.	.	.	.	.	.	.	.	.	.	.	.	.	.	.	.	.	.	.	.	.
8D/J	.	8e 8c\J	.	16b- 16g/	.	16ee\	.	.	.	.	.	.	.	.	.	.	.	.	.	.	.	.	.	.	.	.	.
.	.	.	.	16b- 16g/JJ	.	16ee\JJ	.	.	.	.	.	.	.	.	.	.	.	.	.	.	.	.	.	.	.	.	.
*Xtremolo	*	*Xtremolo	*	*Xtremolo	*	*	*	*	*	*	*	*	*	*	*	*	*	*	*	*	*	*	*	*	*	*	*
=55	=55	=55	=55	=55	=55	=55	=55	=55	=55	=55	=55	=55	=55	=55	=55	=55	=55	=55	=55	=55	=55	=55	=55	=55	=55	=55	=55
4FF/	.	4f 4c\	.	4a 4f\	.	4ff\	.	4F\	-men	.	4c\	-men	.	4a\	-men	.	4ff\	-men	.	4f\	.	4a\	.	4ff\	.	4ff\	.
4r	.	4f 4c\	.	4a 4f\	.	4aa 4cc\	.	4r	.	.	2c\	A-	.	(4a\	A-	.	(4cc\	A-	.	4f\	.	4a\	.	4a\	.	4r	.
4C/	.	4f 4c\	.	4b- 4g\	.	4gg 4cc\	.	4C/	A-	.	.	.	.	4g\)	.	.	4ee\)	.	.	4c/	.	4g\	.	4b-\	.	4ee\	.
!LO:LB:g=original	!	!LO:LB:g=original	!	!LO:LB:g=original	!	!	!	!	!	!	!	!	!	!	!	!	!	!	!	!LO:LB:g=original	!	!	!	!	!	!	!
=56	=56	=56	=56	=56	=56	=56	=56	=56	=56	=56	=56	=56	=56	=56	=56	=56	=56	=56	=56	=56	=56	=56	=56	=56	=56	=56	=56
4F\	.	4f 4c\	.	4a 4f\	.	4ff 4a\	.	4F\	-men	.	4c\	-men	.	4a\	-men	.	4ff\	-men	.	4f\	.	4a\	.	4a\	.	4ff\	.
4r	.	4f 4c\	.	4a 4f\	.	4aa 4cc\	.	4r	.	.	2c\	A-	.	(4a\	A-	.	(4cc\	A-	.	4f\	.	4a\	.	4a\	.	4r	.
4C/	.	4f 4c\	.	4b- 4g\	.	4gg 4cc\	.	4C/	A-	.	.	.	.	4g\)	.	.	4ee\)	.	.	4c\	.	4g\	.	4b-\	.	4ee\	.
!	!	!	!	!	!	!	!	!	!	!	!LO:LB:g=original	!	!	!	!	!	!	!	!	!	!	!	!	!	!	!	!
=57	=57	=57	=57	=57	=57	=57	=57	=57	=57	=57	=57	=57	=57	=57	=57	=57	=57	=57	=57	=57	=57	=57	=57	=57	=57	=57	=57
4F\	.	4f 4c\	.	4a 4f\	.	4ff 4a\	.	4F\	-men	.	4c\	-men	.	4a\	-men	.	4ff\	-men	.	4A/	.	4f\	.	4a\	.	4ff\	.
4C\	.	4c 4F\	.	4a 4f\	.	4ff 4a\	.	4r	.	.	4r	.	.	4r	.	.	4r	.	.	4A/	.	4f\	.	4a\	.	4ff\	.
4AA/	.	4c 4F\	.	4a 4f\	.	4ff 4a\	.	4r	.	.	4r	.	.	4r	.	.	4r	.	.	4A/	.	4f\	.	4a\	.	4ff\	.
=58	=58	=58	=58	=58	=58	=58	=58	=58	=58	=58	=58	=58	=58	=58	=58	=58	=58	=58	=58	=58	=58	=58	=58	=58	=58	=58	=58
!	!	!	!	!	!	!	!	!LO:TX:a:t=1.	!	!	!LO:TX:a:t=1.	!	!	!LO:TX:a:t=1.	!	!	!LO:TX:a:t=1.	!	!	!	!	!	!	!	!	!	!
4FF/	.	4c 4F\	.	4a 4f\	.	4ff 4a\	.	2.r	.	.	2.r	.	.	2.r	.	.	2.r	.	.	4A/	.	4f\	.	4a\	.	4ff\	.
4r	.	4r	.	4r	.	4r	.	.	.	.	.	.	.	.	.	.	.	.	.	4r	.	4r	.	4r	.	4r	.
4r	.	4r	.	4r	.	4r	.	.	.	.	.	.	.	.	.	.	.	.	.	4r	.	4r	.	4r	.	4r	.
==	==	==	==	==	==	==	==	==	==	==	==	==	==	==	==	==	==;	==	==	==	==	==	==	==	==	==	==
*-	*-	*-	*-	*-	*-	*-	*-	*-	*-	*-	*-	*-	*-	*-	*-	*-	*-	*-	*-	*-	*-	*-	*-	*-	*-	*-	*-
!!!system-decoration: [(g1)][(g2)][(g3)][(g4)]s12
!!!RDF**kern: > = above
!!!RDF**kern: < = below
!!!RDF**kern: | = vertical stroke
!!!RDF**dynam: p = "p."
!!!RDF**dynam: f = "for."
!!!RDF**dynam: pp = "pp."
!!!RDF**dynam: sf = "sf."
!!!ENC: Andrzej Borzym
!!!END: 2020-09-15
!!!ENC: Marta Lawrence
!!!END: 2022-01-31
